/* XPM */
static char *exit no ouvert so_long propre[] = {
/* columns rows colors chars-per-pixel */
"50 50 256 2",
"   c #4E7150",
".  c #4F7D56",
"X  c #517051",
"o  c #547D59",
"O  c #59765C",
"+  c #5B7B5B",
"@  c #577657",
"#  c #5C7E63",
"$  c #647D5D",
"%  c #6A7C5C",
"&  c #69775D",
"*  c #7B7F5B",
"=  c #797E59",
"-  c #637D61",
";  c #6D7D62",
":  c #727E61",
">  c #5E825E",
",  c #5E8062",
"<  c #5D8A69",
"1  c #61815E",
"2  c #7B845C",
"3  c #648463",
"4  c #658867",
"5  c #658A6B",
"6  c #6B8364",
"7  c #6C8569",
"8  c #6E8865",
"9  c #6B8B6A",
"0  c #63856A",
"q  c #638B75",
"w  c #6D8E77",
"e  c #6C946F",
"r  c #649275",
"t  c #649378",
"y  c #679B77",
"u  c #6A9274",
"i  c #69957C",
"p  c #6F9B77",
"a  c #6B9C7B",
"s  c #738264",
"d  c #748569",
"f  c #738A6B",
"g  c #7B8363",
"h  c #798669",
"j  c #7C8A64",
"k  c #7A8A6D",
"l  c #758B65",
"z  c #728D71",
"x  c #7B8D71",
"c  c #738672",
"v  c #749372",
"b  c #749875",
"n  c #739B7B",
"m  c #7A9374",
"M  c #7B9679",
"N  c #7A9E77",
"B  c #7A9C7C",
"V  c #6DA077",
"C  c #6EA47C",
"Z  c #6CAA7C",
"A  c #72A47D",
"S  c #73AC7C",
"D  c #7BA07D",
"F  c #77B17E",
"G  c #749B82",
"H  c #779988",
"J  c #7B9C83",
"K  c #739682",
"L  c #6DA585",
"P  c #6DAE80",
"I  c #6FA888",
"U  c #6EB283",
"Y  c #74A583",
"T  c #74A58B",
"R  c #74AB81",
"E  c #74AB8B",
"W  c #7AA483",
"Q  c #7BA48A",
"!  c #79AB83",
"~  c #7CAB8C",
"^  c #76A690",
"/  c #74AB93",
"(  c #7DA690",
")  c #7DAD92",
"_  c #7CAE99",
"`  c #73B083",
"'  c #75B18D",
"]  c #7AB185",
"[  c #7CB28C",
"{  c #76B193",
"}  c #76B198",
"|  c #7CB292",
" . c #7CB399",
".. c #7BB892",
"X. c #837E59",
"o. c #81825A",
"O. c #8B865E",
"+. c #848363",
"@. c #838B64",
"#. c #838C6A",
"$. c #898C6D",
"%. c #8D8764",
"&. c #8A916F",
"*. c #81916A",
"=. c #829473",
"-. c #829C7B",
";. c #8D9472",
":. c #8D9974",
">. c #8A9C79",
",. c #859379",
"<. c #918A66",
"1. c #948C69",
"2. c #9C8D66",
"3. c #90906A",
"4. c #979876",
"5. c #9B9975",
"6. c #9D9E7C",
"7. c #81A07E",
"8. c #8CA27D",
"9. c #90A17D",
"0. c #819E80",
"q. c #82A383",
"w. c #80A68A",
"e. c #83AA85",
"r. c #82AB8D",
"t. c #8BA583",
"y. c #8DAA83",
"u. c #8AAB8C",
"i. c #8BA58A",
"p. c #81AD92",
"a. c #83AB98",
"s. c #8BA697",
"d. c #8BA698",
"f. c #89AB93",
"g. c #88A999",
"h. c #87A694",
"j. c #83B18D",
"k. c #8AB18D",
"l. c #83B194",
"z. c #83B39A",
"x. c #82B896",
"c. c #82B99B",
"v. c #8AB294",
"b. c #8AB49B",
"n. c #8ABA9A",
"m. c #94AC8B",
"M. c #9CA684",
"N. c #9AA985",
"B. c #9AAC8E",
"V. c #93A985",
"C. c #9CB28E",
"Z. c #96B08B",
"A. c #93B291",
"S. c #90B79D",
"D. c #93BA9C",
"F. c #98B393",
"G. c #92BC96",
"H. c #85BBA1",
"J. c #8DBAA1",
"K. c #94BEA3",
"L. c #A4AF8F",
"P. c #A1B18B",
"I. c #A7BB98",
"U. c #A2B595",
"Y. c #8CC29E",
"T. c #8AC0A2",
"R. c #BDD6B6",
"E. c #ABC8AA",
"W. c #CCBE9B",
"Q. c #D5BD99",
"!. c #D0BA94",
"~. c #E4BB92",
"^. c #EFBA9A",
"/. c #F5BE8B",
"(. c #FAB68E",
"). c #FFBE8E",
"_. c #F4BD92",
"`. c #F6BF98",
"'. c #FABD90",
"]. c #FDBD9A",
"[. c #FFBDA0",
"{. c #CDC69D",
"}. c #DCC19C",
"|. c #DFC89F",
" X c #DCC196",
".X c #C1CCAC",
"XX c #CCCBA5",
"oX c #CEC4A1",
"OX c #C4D2B9",
"+X c #D6C7A0",
"@X c #D3CBA6",
"#X c #D6CDAC",
"$X c #DACBA5",
"%X c #DAC9A7",
"&X c #DECAB1",
"*X c #D6D1AD",
"=X c #DDD2AD",
"-X c #DCD9AE",
";X c #DCD5B2",
":X c #D2D8B8",
">X c #ECC48E",
",X c #E4C59F",
"<X c #EBC797",
"1X c #F3C38D",
"2X c #F3C394",
"3X c #F3C59B",
"4X c #F4CA94",
"5X c #F3C99C",
"6X c #FCC394",
"7X c #FDC49A",
"8X c #FCCA95",
"9X c #FDC99B",
"0X c #F7D397",
"qX c #F8D095",
"wX c #FDD39D",
"eX c #F6D19A",
"rX c #E3C6A1",
"tX c #E4C3AA",
"yX c #E7CFAB",
"uX c #EEC3A0",
"iX c #EBCBA4",
"pX c #EBCDA9",
"aX c #E2CBA3",
"sX c #EACFB1",
"dX c #E4D1AC",
"fX c #EAD2AC",
"gX c #EED8AF",
"hX c #E0D8B1",
"jX c #E4DDBA",
"kX c #EED3B0",
"lX c #E6D9B5",
"zX c #F3C5A3",
"xX c #F3CBA3",
"cX c #F4CEA9",
"vX c #FFC4A3",
"bX c #FFC5A9",
"nX c #FDCAA2",
"mX c #FBCBAC",
"MX c #F6CFB2",
"NX c #F7D0A7",
"BX c #F7D8AC",
"VX c #FED2A4",
"CX c #FCD3AB",
"ZX c #FFD9A5",
"AX c #FFD8AF",
"SX c #F5D2AA",
"DX c #F4D4B1",
"FX c #F3DCB4",
"GX c #FDD6B2",
"HX c #FAD9B0",
"JX c #FFE0A9",
"KX c #C4DEC1",
"LX c #D5E6C6",
"PX c #E8DAC0",
"IX c #F8DEC3",
"UX c #EAE2CB",
/* pixels */
"bX].].nXwX0X4X1X6XwX(.9XvXiX|.;XLXE.q.4 5 u u u r r r r r r r r KXLXjX^.MX[.7X].8X8X8X8X4X9X9X7X9X9X",
"[.].9X9X>X4XqX8X8X6XAX`.xXpXFX= m N i.u.v.u.r.~ ~ ~ ~ ) | ~ | ~ f h X.IXzXbX(.9X)./.1XqXwX9X7X2X9X7X",
"].7XnX9X2X4XwX8X9X6XnX~.FX=X2 N.-.w.u.u.r.~ f.z.l.l.l.) l.p.) ~ f.-.L.O.sXDXmX2XVX9X8X8X6X1X6X9X9X7X",
"7X6X9X9X9XwX9X4X3XmXiXFXX.+.8.y.f.u.u.p.r.f.~ ~ ~ ~ ) ) ) p.p.~ A.u.t.:.#.+.dXiX>X2X8X8X7X8X9X9X7X9X",
"VX4X4XwX4X2X5X5XcX,XdXX.N.N G.n.r.w.w.p.v.v.l.~ ~ | l.l.~ z.p.f.W v.r.Y.D V.@.-XgXSXnX`.6X9X9X'.7X9X",
"eX4X4X9X6X2XnXAXfXhXg I.u.j.E a l.v.p.r.T ~ ~ l.l.) ) p.p.~ p.p.) j.R [ ] j.C.% XXfXGX7X6X7X8X9X7X9X",
"4X4XwX5X5XmXcX}.X.g Z.e.Q E H.T.Y Q p.p.l.) ~ j.l.| l.~ p.p.a.l.l.' { ] ] x.D A.g 5.!.SXmX7X).6X7X9X",
"4X0X9X2XnXHXQ.3.M.y.l.~  .c.T / b.p.) ) ) ~ | ~ ~ ~ l.p.~ p.f.~ | | ..{  .E l.Q A.>.5.!.VX9X6X9X7X9X",
"8XVX6X3XCXQ.1.M.i.j.| { { _ _ a.a.a.~ | ..v.j.R y C Y ~ r.p.p.p.| | ) p.a.a.a.a.r.A.9.o.pX~.9X7X].nX",
"7X6X7XAXfX1.M.t.~ { { } _ _ a.a.~ p.l.~ ~ E R V ! Y A Y ~ ~ ~ r.l.| p.p.g.a.g.a.l.r.7.P.<.FXGX_.7XnX",
"7XvXmXiX=X= i.v.| } } } _ a.g.h.) _ x.) Y L Z C [ ] A A Y ~ f.| | ~ p.h.s.s.g.a./ | l.e.2 @XfXcX9XVX",
"vX3XiXdX$.m.j...{ } } _ a.f.f.f.p.| | ~ R A R F S R ] R A A ~ v.~ ~ p.h.s.g.g.a./ c.E e.y.g jXpX3XnX",
"zXcX$X+.P.e.E  .} } _ p.p.f.r.r.p.) Y A A A S ] Z F F ] A A Y ~ ~ j.v.u.p.h.a.a.)  .n.y A.m.: ;XiX7X",
"DXfX<.P.b l. ./ _ _ a.a.f.r.[ j.l.Q G A D S S S S S S S ! R A a ~ j.x.l.p.a.p.) a.~ T n.r.w.u.$.AXnX",
"dXoXg m.j.{ } } _ a.g.h.r.~ ] ] l.Q Y Y F S S S F S F F R ] A a R ~ [ | ~ | ~ _ ) l.p.Q b.r.~ l  X9X",
"*X:.8.u.~ ~ H./ _ a.g.h.r.j.] [ R Y Y R F S S S S S S R S Z ! ! A ! ~ { ' E ' _ ) a.f.z.Y z./ u.2.~.",
"R.N -.v.l.) T | _ z.) p.l.~ ~ [ A A ! ! ! ! S S A ] ] A ] C [ V o j.~ x.R ..c./ | p.p._ p.p.| r.&.@X",
"W n f.r.Q l.p.| ~ l.) ~ | | j.j.C Y R ! R ! ! ! S ! R A ] A F < 3 5 k.! p...E | ) ) p.p.p.~ p.f.=.&.",
"5 w.K.~ Q l.p.a._ ) ) | ~ v.l.! A Z P ! R R R R ! ! R S W S F . 5 @ B j.x.| E ..| ) p.p.p.p.~ r.F.m ",
"n p.f.~ v.l.T z. .~ x.) ~ j.~ n Y R R R ! P R ! ! R ] ! F [ D o 4 9 + G.~ l.~  ._ ) p.a.p.) l.) ! 5 ",
"i p.Q Q b.) T H.p.) b.~ ! j.W p A ! R R U Z U U R P ] ! A e.D > 7 f O r.W x.l.) ) p.p.a.) ~ ) l.~ a ",
"0 a.p.~ z._ ~ | ~ ~ v.~ k.k.b W S ! ! ! P U U U Z U ! ! D W 4 3 f - f , ~ z.~ p.a.p.a.p.~ p.) | z.t ",
"q z.z.l.a.~ ) ) ~ ~ v.Q v.k.9 e.W ! ! ! R U U U U P A F q.7.> 1 d ; x X u.p.) ~ ) p.a.p.p.p.| ) a.q ",
"i ) T ) a._ z.) p.l.v.W v.e.> ! q.! ! S R Z U U Z ` A S k.t.@ l ; ,.$ + b.r.p.l.p.p.p.) p.l.) ) h.K ",
"t ) l._ | ) a.) ~ p.f.f.e.  v @ e.q.! ] ] Z Z ` ` P ! j.D 1 % h x ; x 7 # Q l.~ p.p.p.p.~ ) | p.p.w ",
"t p.a.) _ ) a.) p.r.p.f.e.> 9 > > b e.! R ] ] R S ~ ! e 8 8 h s h ; : c # Q f.) p.a.a.) p.l.) ~ p.w ",
"t l.p.~ l.) l.) p.) p.l.e.9 3 9 1 e D e.! A A S ! [ D 3 1 f k 6 : c d 3 0 f.) ) a.) p.a.p.| ) | ~ r ",
"q ~ p.p.p.) a.) f.p.r.u.r.B + u 8 1 3 b q.i.q.k.D b 9 8 f 6 s s : k 6 - n z.l.p.p.p.p.p.p.p.) | ) r ",
"r f.~ ) p.~ z.a.a.~ p.f.r.r.O 5 6 8 6 1 8 N 0.b 6 + $ f h 6 : k d d 7 # r.~ z.) ) p.a.p.p.p.| ) ~ r ",
"u j.f.f.~ p.p.) ( p.p.f.r.f.0 3 f z k 1 $ $ % 6 6 6 6 s 6 s d d d 6 5 4 v.~ x.~ p.) a.p.~ | p.| r.r ",
"u r.r.~ p.r.l.p.p.) p.p.w.v.n - 6 % s k h % ; k d k k d s d h 6 d 7 - N v.~ ) ~ p.p.p.) p.) ) ) f.u ",
"e r.r.r.f.p.~ p.f.p.p.r.Q v.r., 9 f d 6 d k h s : s : s h d s 6 d f O l.r.x./ | | ~ r.a.p._ ) ) u.f ",
"f f.f.w.l.l.~ l.) ) ~ ~ l.r.j.r.> 1 l 8 6 l h : s g s g d d d h ; c J b.x.' E [ Y v.S.J g.H.T p.8.:.",
"OX6 i.u.f.| ) ~ ) r.f.r.r.j.~ ~ 7.9 1 2 d 6 : #.h g : d k k l $ - J f.r.E ..[ ' ~ v.J d.b.^ H.) #.{.",
"UX$.B.t.r.~ c./ p.p.h.f.~ j.[ [ q.4 @ 9 m s % 6 6 h k d % % 7 x 5 ( S.Q L ..x.~ x.n v.J.K H.T u.<.Q.",
"tX&X+.B.A Y.Y z.p.a.g.f.u.l.{ ] v.D 4 $ 6 9 f k k ; ; d x v 6 + J ~ l.l.~ ~ ) l.~ p.K.w.b.J v.f aXVX",
"mXMX1.:.k.j.I  .a.g.d.d.g.p.| ' l.k.D 5 # 7 7 - ; c c 7 + + f W l.] ~ x.l.Q ( g.a.b.G u.A.u.B :.xX9X",
"mX^.,X&.y.S ..~ a.g.d.d.h.l.} ' Y ~ l.e.n 5 - # z 3 O + 9 B r.j...' ' ) p.a.a.a.g.p.r.v.q.B.#.@X5X8X",
"[.vXSX$Xj e.j.) a.a.a.a.a.) { { z.x.z.v.p.W w.u.# 5 J f.p.r.~ l.[ [ | ~ a.a.a.) ) l.b.D U.g #XkX5X8X",
"7X].xXFXXXl v.~ ) _ _ a._ | | | ~ ~ ) ~ p.f.f.~ ( p.f.f.h.f.p.l.{ [ | l.a.( a.a. .| r.t.;.#XkXcX9X4X",
"9X6X<XBX{.5.-.i.~ ) c./ { H.T ) ) | ) ) p.p.p.p.p.p.p.p.~ p.p.) ~ l.v.f.Q b.) z.L n.k.8.<.}.GX3X9X4X",
"8X/.VX5XiX$X6.-.r.~ E | / | b.p.) | ) | | ) p.p.p.p.~ p.l.p.| p.j.~ Q Q K.K H.E n.W y.@.aX5X].vX9X4X",
"1XZX2X9XmXSX%X4.V.k.[ ..n.i p.a.p.) ) ) ) ) _ ) p.| a.| ) _ ) | f.w.f.b.Q D.K l.j.y.2 hXiXGX].].7X7X",
"4X4X9X9X9XmX,X+X@.C.N r.Y D.p.p.p._ | ) p.) ) ) ) _ ) ) ) ) ) p.p.f.f.( v.w.u.-.>.@.hX,XAX].7X7X7X7X",
"9X2X9X9X7X7X3XAX$Xo.*.m.v.w.u.z.p.a.) a.p.| _ ) ) p.) ) _ ) ) a.a.p.Q w.f.0.N.;.1.dX,XmX9X'.7X9X7X7X",
"9XCX_.9X7X'.CX3X<XFX*X* m.u.J v.p.l.p.| a.p.) ) ) _  .) ) ) ) | z.^ a.K.B m.:.+X%X3XCX7X'.VX2X9X7X9X",
"vX7XmX'.6XVX).7XnXcXpXjXg m.l.l.f.~ ) ) ) ~ ) p.) l.~ p.l.p.~ p./  .| Q f.=.#XkXGX].].7X8X1XJX>X6X6X",
"].9X6X9X9X'.9X7X7X7XzXpXhX#.: 9 i.f.r.f.p.l.p.p.p.p.p.p.~ f.p.p.p.r.M 6 &.@XfXcX].7XvX7X9X9X>XwX8X8X",
"9X9X7X7X9X8X7X7X9X9X9X5XxXxXxXdX%.: =.J r.b.H J.a.( p.~ Q D.-.M g 6.{.yXxX5X5X5X9X6X7X7X7X9X4X4X9X9X",
"7X9X9X9X7X9X9X9X9X6X7X9X7X9X8XxXsXlXR.m 0 a q q H q i K q v M .X*XfXCXmX7X6X8XwX9X8X7X7X7X7X9X8X9X9X"
};
