/* XPM */
static char *exit ouvert so_long propre[] = {
/* columns rows colors chars-per-pixel */
"50 50 218 2",
"   c #8D3A00",
".  c #943600",
"X  c #963802",
"o  c #A13D0B",
"O  c #B03E0A",
"+  c #8F4200",
"@  c #96470C",
"#  c #9A4300",
"$  c #99410E",
"%  c #9A4318",
"&  c #9E4D1A",
"*  c #A14603",
"=  c #A1420D",
"-  c #A24B06",
";  c #A74E0A",
":  c #AB400C",
">  c #AE4F0B",
",  c #A34310",
"<  c #A34E18",
"1  c #AA4212",
"2  c #AA4914",
"3  c #A94C18",
"4  c #A4500A",
"5  c #AA560E",
"6  c #A35A16",
"7  c #AC511C",
"8  c #AF5C16",
"9  c #AD581F",
"0  c #B24F0C",
"q  c #B64B15",
"w  c #B0530E",
"e  c #B25613",
"r  c #B2501F",
"t  c #BF511E",
"y  c #A55323",
"u  c #B35421",
"i  c #B35C27",
"p  c #B75B28",
"a  c #A56015",
"s  c #BA621A",
"d  c #C45E1C",
"f  c #CE5E1E",
"g  c #D24D15",
"h  c #D55017",
"j  c #D3541D",
"k  c #D25B1F",
"l  c #DA551B",
"z  c #C35B24",
"x  c #C15B2A",
"c  c #CB5B22",
"v  c #D35C24",
"b  c #D15E2A",
"n  c #DB5C24",
"m  c #DB5F29",
"M  c #C5601C",
"N  c #C46222",
"B  c #C6612D",
"V  c #C7692C",
"C  c #CE6325",
"Z  c #CB632D",
"A  c #CA6C2D",
"S  c #C76734",
"D  c #CE6631",
"F  c #C86E32",
"G  c #CD6C39",
"H  c #D36226",
"J  c #D3642B",
"K  c #D26B2C",
"L  c #DC6325",
"P  c #DB632B",
"I  c #DC6A2E",
"U  c #D46434",
"Y  c #D46933",
"T  c #D66E39",
"R  c #D86630",
"E  c #DC6A32",
"W  c #D86D39",
"Q  c #D9702F",
"!  c #D77534",
"~  c #D4713B",
"^  c #DA7334",
"/  c #DC703A",
"(  c #D97834",
")  c #DB7C3A",
"_  c #E05723",
"`  c #E55B22",
"'  c #E65E2A",
"]  c #E95E23",
"[  c #E46025",
"{  c #E3632A",
"}  c #E06E2F",
"|  c #EA632A",
" . c #E06533",
".. c #E76831",
"X. c #E06E38",
"o. c #ED6636",
"O. c #E86C34",
"+. c #E47136",
"@. c #E37039",
"#. c #E5793B",
"$. c #E9763E",
"%. c #F3672C",
"&. c #F0692F",
"*. c #F26C37",
"=. c #F26F39",
"-. c #F37135",
";. c #F3743C",
":. c #FA713A",
">. c #D06E41",
",. c #D47640",
"<. c #FF7A42",
"1. c #BB803A",
"2. c #C1944C",
"3. c #C69D50",
"4. c #C99B54",
"5. c #CB9B5B",
"6. c #DC9F68",
"7. c #C5A14D",
"8. c #C6A054",
"9. c #CAA753",
"0. c #CCA059",
"q. c #D2A15E",
"w. c #D5B256",
"e. c #D6B35B",
"r. c #DCB75C",
"t. c #DDBD56",
"y. c #DCBA5E",
"u. c #D4A561",
"i. c #D8A963",
"p. c #DCB364",
"a. c #DABB60",
"s. c #E6974C",
"d. c #E6AD5E",
"f. c #E1BF5E",
"g. c #FAA65E",
"h. c #E2B560",
"j. c #E1B46A",
"k. c #E4BC63",
"l. c #E4BC69",
"z. c #EBB563",
"x. c #EABA65",
"c. c #EABD6A",
"v. c #EABC72",
"b. c #EBBB7B",
"n. c #F2AD60",
"m. c #FCAD65",
"M. c #F0B164",
"N. c #F5B867",
"B. c #F4BB6B",
"V. c #FEB166",
"C. c #FDB36B",
"Z. c #FABD6D",
"A. c #FFB27F",
"S. c #FEBD72",
"D. c #DDC165",
"F. c #DFC66A",
"G. c #E3C263",
"H. c #E5C46A",
"J. c #E2C86D",
"K. c #EBC36B",
"L. c #EAC865",
"P. c #EBCA6B",
"I. c #EBC472",
"U. c #EBC17A",
"Y. c #EBCA70",
"T. c #EED173",
"R. c #F0C36D",
"E. c #F0CE6D",
"W. c #F2C373",
"Q. c #F2C37F",
"!. c #F2CA72",
"~. c #F5CC7A",
"^. c #FDC172",
"/. c #FFC57B",
"(. c #FFC876",
"). c #FDCC7D",
"_. c #F4D073",
"`. c #FAD27C",
"'. c #E7B68D",
"]. c #EEB985",
"[. c #EDBE90",
"{. c #F4AF86",
"}. c #F0BD83",
"|. c #F5BB8D",
" X c #FFB482",
".X c #FFB489",
"XX c #FDB986",
"oX c #FDBB8B",
"OX c #F3BE92",
"+X c #FCBD93",
"@X c #FDBC9C",
"#X c #ECC492",
"$X c #EEC198",
"%X c #EEC899",
"&X c #F5C384",
"*X c #F6C389",
"=X c #F7C98E",
"-X c #FDC28D",
";X c #FFCC84",
":X c #FBCC8B",
">X c #F5C293",
",X c #F5C59C",
"<X c #F5CB9C",
"1X c #FDC495",
"2X c #FEC69A",
"3X c #FDC995",
"4X c #FDC89A",
"5X c #FDD28C",
"6X c #FED294",
"7X c #FFD29A",
"8X c #FFDA9E",
"9X c #FFC5A3",
"0X c #FECCA2",
"qX c #FFC8A9",
"wX c #FFD2A4",
"eX c #FED4AA",
"rX c #FED9A9",
"tX c #FFE09C",
/* pixels */
"4X4X2X4X4X2X4X4X4X4X3X4X4X2X4X4X2X2X4X4X4X<X3X4X<X3X4X4X4X4X9X3X4X4X4X4X4X4X4X4X4X4X4X4X4X4X4X4X4X4X",
"4X4X4X4X4X4X4X4X2X4X2X4X4X4X4X4X1X4X2X4X4X4X3X4X4X3X4X4X4X0X9X4X2X4X4X2X2X4X2X4X4X2X4X2X2X4X4X2X2X4X",
"2X4X4X4X4X4X2X3X4X4X4X4X4X4X4X2X2X4X2X4X3X4X3X3X<X<X3X4X9X2X4X4X4X4X4X4X4X4X2X4X4X4X4X4X4X4X4X4X4X4X",
"4X4X2X4X2X4X2X4X4X2X4X2X4X2X4X4X2X2X2X2X4X4X4X<X3X4X4X4X9X2X2X4X2X2X3X4X4X4X4X4X4X4X2X4X4X4X4X1X4X4X",
"4X4X2X4X4X4X2X4X4X2X4X4X4X2X4X3X2X9X2X2X9X4X3X3X3X3X4X4X4X2X2X2X2X4X4X2X4X4X4X4X2X4X4X4X4X4X4X4X4X3X",
"2X4X4X4X4X4X4X4X3X2X4X4X4X4X4X2X2X2X2X2X4X4X3X3X4X3X3X1X4X4X2X2X2X4X4X4X4X4X4X4X4X4X2X3X4X2X4X2X2X2X",
"4X4X4X4X4X2X4X2X4X4X4X4X4X4X4X2X9X2X2X2X4X3X3X3X3X3X3X3X2X2X2X9X2X4X4X4X4X4X4X4X4X4X4X4X4X2X4X4X4X4X",
"4X4X2X4X4X3X4X4X4X4X2X4X4X2X4X2X2X2X9X2X3X3X3X:X3X:X3X3X3X2X2X2X2X4X4X2X4X4X4X4X2X4X4X2X4X4X4X4X4X4X",
"2X2X4X4X4X4X2X4X4X4X2X4X4X4X2X2XOXwX4X>X3X6X&X3X4.5.].6X:X3X3X3X2X4X4X4X3X0X4X4X4X1X4X4X2X4X4X2X2X4X",
"3X4X4X4X4X4X4X4X2X3X4X4X4X4X4X4XrX-X3X6X6Xb.i.4.v.&Xu.5.-X3X7X1X3X4X4X,X1X4X4X0X4X4X4X2X4X4X4X3X4X4X",
"4X4X2X4X4X2X2X4X4X2X4X2X4X2X4X3X1X}.*X6X&X0.Q.p.~.l.j.p.u.;X&X6X4XwX4X4X4X3X2X4X4X4X4X4X4X4X2X4X4X4X",
"4X2X4X4X4X4X4X4X4X4X4X4X4X4X2X4X*XwX*X6X2.l.c.`.l.l.~.;Xv.2.;X3X4X4X4X4X4X4X,X1X4X4X4X4X2X4X4X4X4X2X",
"4X2X4X4X2X4X4X4X4X4X4X2X4X4X4X3X7Xb.tX2.I.Y.k.G.P.P.c.E.l.b.3.;X3X>X>X2X0X4X4X4X4X4X4X4X4X4X4X4X4X2X",
"4X4X4X4X4X4X2X4X4X2X4X4X2X4X4X3X*X:X0.r.I._.G.P.P.P.k.r.`.l.c.4.7X4X2X>X2X4X4X4X2X4X4X2X2X4X2X4X4X4X",
"3X4X4X4X3X4X2X4X4X4X4X4X4X4X4X3X:X5X3.I.E.w.E.L.L.f.P.E.r.`.l.4.-X4XwX4X>X4X4X2X4X4X4X4X4X4X4X4X4X4X",
"2X4X2X4X4X4X4X4X2X2X2X2X2X4X4X3X:X3.I.H.R.E.f.L.G.L.G.f.E.c.c.W.6.|.4X4X1X0X4X>X4X4X2X2X2X2X4X4X4X1X",
"4X4X3X<X4X<X3X9X2X9X@X0X9X3X=X=XI.e.e.K.!.x.k.E.f.Y.P.y.K.E.x.C.@ 1X1X1X|.eX%XqX,X4X4X2X2X1X4X3X4X4X",
"4X4X4X3X<X4X4X4X@XqXqXqX1X>X7X5X9.y.Y.K.x.B.K.K.K.P.D.H.!.K.z.a A u .X4XwX'.[.eX4X9X2X2X2X1X4X4X4X2X",
"2X1X3X4X3X3X4X9X2XqX9X9X>X=XwXU.7.G.~.H.x.K.E.k.H.K.F.P.x.z.(.  V u A.XX0XwXeX9X9X4X2X2X1X4X4X<X4X2X",
"2X2X4X4X3X4X4X4X9X9X2X0X,X=X5X8.l.K.H.c.B.Y.K.H.H.J.H.K.x.N.).5 N Z p 1X+X4XOX,X4X4X1X2X3X3X4X4X4X4X",
"2X2X2X4X3X4X4X4X0X,X,X4X<X5XU.8.`.K.x.K.E.K.H.H.K.G.K.x.(.^.s.w #.E = -X+X2XeX0X4X4X2X1X3X4X4X4X4X4X",
"2X2X2X2X3X4X4X4X,X3XwX4X=X:Xi.v.c.K.R.K.K.K.J.H.J.H.!.z.^.V.s d M L z i XX1X4X>X4X4X3X2X3X4X4X3X4X4X",
"2X2X2X4X1X3X4X4X,X3X<X3X-X;X1./.M.B.R.K.K.J.J.J.H.Y.!.B.C.g.> I L { / . wX4X>XrX4X4X4X3X4X4X3X<X4X4X",
"9X4X4X4X4X3X3X4X4X4X-X3X3X:X6 C.^.B.x.K.I.H.F.J.J.K.x.Z.S.C.w M | n E 2 XX3X4X>X4X3X4X3X3X4X<X4X3X4X",
"4X<X4X4X3X1X4X4X2X4X4X-XoX9 A # S.B.W.c.~.J.D.J.H.K.z.S.m.w d } l *.v Z & 3X7X3X3X4X4X1X4X4X4X<X4X4X",
"<X<X4X4X3X3X2X2X2X>X1X4X-XX Y ^ 4 g.^.z.r.H.T.K.~.x.).C.# ( Q L ] ' I ~ < oX4X4X4X4X3X3X4X4X<X4X4X4X",
"<X<X4X<X3X1X1X4X4X4X2X.X4Xo X.f N 8 C.S.).x.I.x.z.M.C.- ^ K f I %.n v ,.& 1X4X4X4X4X3X4X4X4X4X4X4X4X",
"<X<X4X4X4X1X2X2X9X1X0X1X X3XO E K A - m.S.Z.d.S.S.;X; K C f +.P l %.,.. 4X3X>X4X4X3X3X1X4X4X4X4X4X4X",
"<X<X4X4X1X1X4X4X>X<X4X1X4XXXO E P P C e   S.;XC.4 X K H I O.P n ' { b 1 1XwX3X,X4X4X3X2X1X4X4X4X4X4X",
"<X<X4X1X1X2X4X4X%X0X<X3XoX1X2 c m I I K ) . # - M ^  .n ..n j ;.{ ..z 3 -X|.>XwX4X3X4X4X2X2X2X4X4X2X",
"4X4X4X2X2X2X4X4X%XrX#X#XwX-X-Xq ' _ { I C Q K I E v m *.' ' n { ' m d +XXXwXwX[.3X4X4X1X2X1X2X2X4X2X",
"<X4X2X2X2X3X4X4X<X%X<X8X].-X4X=  .o.m m +.H H I { [ | | _ ' *.n  .U o oX1X2XwX4X,X4X4X2X2X4X1X2X4X4X",
"4X4X4X2X2X2X3X4X4X4X3X4X3X2X2X1X1 U U R { { l | ] ] ` :.g { O.m >.% 4X2X1X1XwX>X4X3X<X3X4X4X4X4X4X4X",
"3X4X4X4X2X4X4X4X4X4X4X4X4X4X2X1X4XO W b m n <.l %.] ] g ;.k J W % +X2X+X4X9XOX4X4X4X<X4X4X4X4X4X4X4X",
"4X4X4X4X4X4X4X4X4X4X4X4X2X4X2X1XXXu x W b J ' P [ { n P P @.J B y qX{.9X2X1X1XwX4X<X3X4X4X4X4X4X4X2X",
"4X2X4X4X4X2X4X4X4X4X4X2X4X4X4X1XXXoXu G T U J P P m ;.J Y Z U p .X+X2XeX2X>X4X4X4X<X4X4X4X2X4X2X3X4X",
"4X2X4X4X4X4X4X2X2X4X4X2X4X4X4X2X0X-XXX$ 3 ~ Z Y Y b Z ! T = 3  X0X9X9X|.9X4X,X4X3X3X4X4X4X2X2X2X2X4X",
"4X4X2X4X4X2X4X4X4X4X4X4X4X2X4X1X2XXX4X4X1X@ 7 2 S ,.7 $ < oXXX4XoX4X|.|.4X0X4X4X4X4X4X4X2X2X2X2X2X4X",
"4X4X2X4X4X2X4X2X4X4X4X4X4X4X4X4X3XrX|.XX1XoX4XXX& 9  X3X-X-X3X-X0X4X2XrX4X>X4X3X4X4X2X4X2X2X2X2X2X4X",
"2X3X4X4X4X4X4X3X2X4X4X2X4X4X4X4X>X>X4XwXoX-X3X-X1XoX4X-X-X7XoX4X2X>XeX|.wX0X1X3X4X4X4X2X1X2X2X2X2X4X",
"2X4X3X4X4X4X4X4X4X4X4X4X4X4X4X4X4X<X4X4X4X4X3X3X1X1X1X3X1X4X4X4X4X4X4X4X4X4X3X4X4X4X4X2X2X2X2X2X2X4X",
"4X4X2X4X4X2X4X4X1X4X4X2X2X4X4X4X<X<X4X<X4X4X4X4X4X3X4X<X4X4X4X4X4X4X4X3X4X4X4X4X4X4X4X4X2X2X2X2X2X4X",
"4X4X2X4X4X2X3X2X4X4X4X4X4X4X4X4X4X<X4X<X<X4X4X3X4X4X4X4X4X4X4X4X4X4X4X<X4X4X4X4X4X4X4X4X4X2X2X2X2X4X",
"2X4X4X4X4X4X4X2X4X4X4X4X1X4X4X4X<X4X<X4X4X<X4X3X4X4X4X4X4X4X4X4X4X4X4X4X4X4X4X4X4X4X4X4X4X4X2X2X3X4X",
"4X4X2X4X4X2X4X4X4X1X4X4X4X4X4X4X4X4X4X3X,X4X4X4X4X4X4X4X4X4X4X4X4X4X4X4X4X4X4X2X4X4X4X4X4X4X4X4X2X4X",
"4X4X4X4X4X4X4X4X4X4X4X2X4X4X4X4X4X4X4X4X4X4X4X4X4X4X4X4X4X2X2X4X4X4X4X4X4X4X4X4X4X4X4X4X4X4X3X4X4X4X",
"4X4X2X3X4X2X2X4X4X4X4X4X4X4X4X4X3X3X4X4X3X4X2X4X4X4X4X4X2X2X2X2X2X4X4X4X4X4X4X4X4X4X4X4X4X4X3X4X4X4X",
"4X4X2X4X4X4X4X4X4X4X4X4X2X4X4X2X4X4X4X4X4X4X4X4X4X4X2X2X4X1X2X2X2X4X4X4X4X4X4X4X4X4X3X3X4X<X,X4X4X4X",
"2X4X4X4X4X4X4X4X2X4X4X2X4X4X4X4X4X2X4X4X2X4X4X2X2X4X4X2X4X2X2X2X4X4X4X2X4X4X2X4X4X4X4X3X4X4X4X4X4X4X",
"4X4X2X4X4X2X2X3X4X4X4X4X4X4X4X2X4X3X4X2X4X4X4X4X4X4X4X3X4X4X2X4X2X4X4X4X4X4X4X4X2X4X4X2X2X4X4X4X4X4X"
};
