/* XPM */
static char *blanc[] = {
/* columns rows colors chars-per-pixel */
"50 50 3 1 ",
"  c #EEEFEA",
". c #EFF0EB",
"X c #F0F1EC",
/* pixels */
"..................................................",
".................................................X",
".................................................X",
".................................................X",
".................................................X",
".................................................X",
".................................................X",
".................................................X",
".................................................X",
".................        ........XXXXXXXXXXXXXXXXX",
".................        ........XXXXXXXXXXXXXXXXX",
".................        ........XXXXXXXXXXXXXXXXX",
".................        ........XXXXXXXXXXXXXXXXX",
".................        ........XXXXXXXXXXXXXXXXX",
".................        ........XXXXXXXXXXXXXXXXX",
".................        ........XXXXXXXXXXXXXXXXX",
".................        ........XXXXXXXXXXXXXXXXX",
".........  ..XXXX........................  ..XXXX.",
".........  ..XXXX........................  ..XXXX.",
".........  ..XXXX........................  ..XXXX.",
".........  ..XXXX........................  ..XXXX.",
".........  ..XXXX........................  ..XXXX.",
".........  ..XXXX........................  ..XXXX.",
".........  ..XXXX........................  ..XXXX.",
".........  ..XXXX........................  ..XXXX.",
".........................        .................",
".........................        .................",
".........................        .................",
".........................        .................",
".........................        .................",
".........................        .................",
".........................        .................",
".........................        .................",
".........................        .................",
".........................        .................",
".........................        .................",
".........................        .................",
".........................        .................",
".........................        .................",
".........................        .................",
"........................         .................",
".................                        .........",
".................                        .........",
".................                        .........",
".................                        .........",
".................                        .........",
".................                        .........",
".................                        .........",
".................                        .........",
"X........                ...     .. ............. "
};
