/* XPM */
static char *colectible so_long propre[] = {
/* columns rows colors chars-per-pixel */
"50 50 256 2",
"   c #0F0200",
".  c #180A00",
"X  c #1E1B12",
"o  c #17240A",
"O  c #1E2015",
"+  c #002C2B",
"@  c #012D34",
"#  c #00342A",
"$  c #003634",
"%  c #02323A",
"&  c #013F34",
"*  c #003B3A",
"=  c #0E333B",
"-  c #152620",
";  c #182C21",
":  c #18322F",
">  c #103639",
",  c #17383F",
"<  c #1A3C3D",
"1  c #250F00",
"2  c #201B0B",
"3  c #2A1A18",
"4  c #371B17",
"5  c #241721",
"6  c #22241F",
"7  c #2C2C19",
"8  c #222D1C",
"9  c #2D321E",
"0  c #36210C",
"q  c #382914",
"w  c #33271A",
"e  c #3E331F",
"r  c #2A2421",
"t  c #242D2A",
"y  c #253D27",
"u  c #2A3C31",
"i  c #25383A",
"p  c #312C21",
"a  c #3D2928",
"s  c #303A2F",
"d  c #3A3225",
"f  c #3C3930",
"g  c #34393A",
"h  c #003740",
"j  c #173746",
"k  c #1C3146",
"l  c #213745",
"z  c #2B3841",
"x  c #2C3C4C",
"c  c #2E3C56",
"v  c #343A41",
"b  c #004330",
"n  c #00463E",
"m  c #084037",
"M  c #16453D",
"N  c #284839",
"B  c #285937",
"V  c #3F4B3F",
"C  c #345B2C",
"Z  c #385B31",
"A  c #004541",
"S  c #0A4849",
"D  c #164442",
"F  c #124C4A",
"G  c #1B434C",
"H  c #1D4A4C",
"J  c #1A4748",
"K  c #1D4A52",
"L  c #194A55",
"P  c #1C524E",
"I  c #1A5156",
"U  c #125156",
"Y  c #1A5F64",
"T  c #244343",
"R  c #244C4A",
"E  c #29454B",
"W  c #284E43",
"Q  c #284449",
"!  c #274054",
"~  c #264E58",
"^  c #2B4552",
"/  c #2B495B",
"(  c #2F534F",
")  c #24535A",
"_  c #265855",
"`  c #2D5356",
"'  c #2F515D",
"]  c #235151",
"[  c #33434B",
"{  c #344A4E",
"}  c #384043",
"|  c #304250",
" . c #374858",
".. c #384651",
"X. c #3F4D58",
"o. c #39445B",
"O. c #3A584E",
"+. c #37524B",
"@. c #335A5F",
"#. c #334960",
"$. c #3B5663",
"%. c #3B5168",
"&. c #2F6845",
"*. c #3C6A45",
"=. c #3B6557",
"-. c #43291C",
";. c #464338",
":. c #43513A",
">. c #4C623E",
",. c #414247",
"<. c #40424F",
"1. c #486D41",
"2. c #1A887B",
"3. c #2F845A",
"4. c #209077",
"5. c #209B7E",
"6. c #2D9C7A",
"7. c #398C78",
"8. c #36867C",
"9. c #339876",
"0. c #308F6F",
"q. c #429066",
"w. c #469C7C",
"e. c #52876B",
"r. c #559877",
"t. c #4BA174",
"y. c #1D8989",
"u. c #179884",
"i. c #1A9787",
"p. c #1F908A",
"a. c #1C9E84",
"s. c #208A88",
"d. c #2A9284",
"f. c #28958E",
"g. c #2A9F82",
"h. c #259A88",
"j. c #259C94",
"k. c #2A9192",
"l. c #299C94",
"z. c #2C9B9C",
"x. c #289695",
"c. c #348A84",
"v. c #398883",
"b. c #388A88",
"n. c #388F96",
"m. c #349389",
"M. c #369B8A",
"N. c #339591",
"B. c #3B9595",
"V. c #389995",
"C. c #349DA1",
"Z. c #2EA482",
"A. c #24A192",
"S. c #23A098",
"D. c #2AA393",
"F. c #2FA99E",
"G. c #32A380",
"H. c #31A293",
"J. c #32A697",
"K. c #3BB09E",
"L. c #2BA2A0",
"P. c #33A5A4",
"I. c #468D87",
"U. c #468A88",
"Y. c #499E81",
"T. c #4A9187",
"R. c #4D989E",
"E. c #479895",
"W. c #589399",
"Q. c #549599",
"!. c #4EA384",
"~. c #4DA096",
"^. c #48A49F",
"/. c #41A9A8",
"(. c #44A9A1",
"). c #CDB297",
"_. c #EDB68F",
"`. c #E4BF9D",
"'. c #ECBD97",
"]. c #F6B887",
"[. c #FCBD8D",
"{. c #F4BD93",
"}. c #F1BA99",
"|. c #FABC91",
" X c #FCBE9A",
".X c #FDB59D",
"XX c #EFBDA6",
"oX c #FCB7A8",
"OX c #FFBCA9",
"+X c #C3D4AA",
"@X c #DBC1A6",
"#X c #DECFAE",
"$X c #D8C2A9",
"%X c #DDCBBD",
"&X c #D0D7AE",
"*X c #DDD4AD",
"=X c #D3D6B8",
"-X c #EBC18F",
";X c #EBC691",
":X c #ECC19B",
">X c #EDD09A",
",X c #FAC589",
"<X c #F1C29A",
"1X c #F7CC96",
"2X c #F4CC9A",
"3X c #FDC394",
"4X c #FEC59A",
"5X c #FDC995",
"6X c #FDC89A",
"7X c #F3C297",
"8X c #FFD194",
"9X c #E7C5A9",
"0X c #E7CAA4",
"qX c #E4CCAB",
"wX c #EBC4A1",
"eX c #ECCBAA",
"rX c #E3C7B9",
"tX c #E0CBB0",
"yX c #E9CCB4",
"uX c #E7CABA",
"iX c #E7D1BC",
"pX c #EBD2B5",
"aX c #EBD1BA",
"sX c #E7DABC",
"dX c #F3C7A2",
"fX c #F5C9A3",
"gX c #F2CAA9",
"hX c #FDC6A2",
"jX c #FCCAA1",
"kX c #FDCDAC",
"lX c #F2C6A9",
"zX c #F4C8B1",
"xX c #FFC7B5",
"cX c #FDCBB1",
"vX c #F8C9B9",
"bX c #F0C6B6",
"nX c #F6D2AB",
"mX c #FDD1A2",
"MX c #FED3AB",
"NX c #FFDBAE",
"BX c #F4D3B5",
"VX c #FDD4B2",
"CX c #FFD5BA",
"ZX c #F9D8B7",
"AX c #F0DAB5",
"SX c #CDDDD0",
"DX c #D1D4C1",
"FX c #EECDC4",
"GX c #E8DBC4",
"HX c #E7D8C5",
"JX c #FFD5C8",
"KX c #FEDAC3",
"LX c #F1DCC1",
"PX c #F3D1D2",
"IX c #FFE8C8",
"UX c #F5E1C9",
/* pixels */
"6X6X6X6X6X6X6X6X6X6X6X6X6X6X6X6X1X1X5X4X4X4X4X6XdXfX4X4X X4X6X6X6X6X6X6X6X6X6X6X6X6X6X6X6X6X6X6X6X6X",
"6X6X6X6X6X6X6X6X6X6X6X6X4X3X6X6X1X1X5X4X4X4X4X6X2X6X4X6X4X3X6X6X6X6X6X6X6X6X6X6X6X6X6X6X6X6X6X6X6X6X",
"6X6X6X6X6X6X6X6X6X6X6X6X6X6X6X6X2X2X5X6X4X4X6X4X4X4XhX2X1X1X6X6X6X6X6X6X6X6X6X6X6X6X6X6X6X6X6X6X6X6X",
"6X6X6X6X6X6X6X6X6X6X6X6X6X6X6X6X1X6X6X6X6X6X6X4X4X4X6X2X2X6X6X3X6X6X5X6X6X6X6X6X6X6X6X6X6X6X6X6X6X6X",
"5X4X6X6X6X6X6X6X6X6X6X6X6X6X6X6X3X4XfX2X2X2X6X6X4X1X2X2X6X4X4X4X6X6X6X6X6X6X6X6X6X6X6X6X6X6X6X6X4X4X",
"6X4X6X6X6X6X6X6X6X6X6X6X6X6X6X3X.X X6X>X>X>X6X6X6X1X1X6X6X4X4X4X6X6X6X6X6X6X6X6X6X6X5X4X6X6X6X6X5X6X",
"6X6X6X6X6X6X6X6X6X6X6X6X6X6X6X6X4X X4X2X>X>X2X6X4X3X6X6X6X6X6X6X6X6X6X6X6X6X6X6X6X6X6X4X6X6X6X6X6X6X",
"6X6X6X6X6X6X6X6X6X6X6X6X6X6X6X6X4X3X4X4X2X>X2X6XOX4X3X6X6X1X2X2X6X6X6X6X6X6X6X6X6X6X6X6X6X6X6X6X6X6X",
"6X6X6X6X6X6X6X6X6X6X6X6X6X6X6X6X5X6X3X3XNX7XjXjX3XkX|.kXmX;X;X8X6X6X6X6X6X6X6X6X6X6X6X6X6X6X6X6X6X6X",
"6X6X6X6X6X6X6X6X6X6X6X6X6X6X6X6X1X6X6XjX XjX0X0X0X0XnX:X:XNXmX;X6X6X6X6X6X6X6X6X6X6X6X6X6X6X6X6X6X6X",
"6X6X6X6X6X6X6X6X6X6X6X6X6X6X6X6X8X7XMX X}.CXsX=X1.C +X*XgX X X4XhX6X6X6X6X6X6X6X6X6X6X6X6X6X6X6X6X6X",
"6X6X6X6X6X6X6X6X6X6X6X6X6X6X6X6X3XmX_.lXCXGXy &.3.t.B >.tXxX.XcX4X6X6X6X6X6X6X6X6X6X6X6X6X6X6X6X6X6X",
"6X6X6X6X6X6X6X6X6X6X6X6X6X6X6X6X3XhXVX9X=XB Y.Z.Z.9.w.e.o aXOXOX4X6X6X6X6X6X6X6X4X6X6X6X6X6X6X6X6X6X",
"6X6X6X6X6X6X6X6X6X6X6X5X6X6X6X4XMX}.BX=XB !.h.a.u.K.4.b N 2 JXxXhX6X6X6X6X6X6X6X4X5X6X6X6X6X6X6X6X6X",
"6X6X6X6X6X4X5X6X6X6X6X4X6X6X6X6X|.gX&X*.t.4.A.j.L.k.B.n M N p $XfX6X6X6X6X6X6X6X6X6X6X6X6X6X6X6X6X6X",
"6X6X6X6X6X6X6X6X6X6X6X4X6X6X6X4XVX0XZ q.6.a.P.j.z.z.N.v.# N N 9 eXhX6X4X6X6X6X6X6X6X6X6X6X5X4X5X6X6X",
"6X6X6X6X6X6X6X6X6X6X6X6X6X6X6XjXlXsXB 0.Z.5.J.h.A.u.D.M.* R i r yXdXfXMX{.jX3XjX6X6XhX6X6X5X4X5X6X6X",
"6X6X6X6X6X6X6X6X6X6X6X6X6X6X6XfXaX:.r.9.6.J.2.J.D.D.h.d.+ G %.v 0 eX:XfXmXMX6X|.6XhX6X6X6X5X5X3X6X5X",
"6X6X6X6X6X6X6X6X6X6X6X6X6X6X6XgXDX=.7.G.V.l./.k.l.j.f.E.Q.@ G { w BXZXVX{.7X6X6X6X6X6XhX6X6X5X5X5X6X",
"6X6X6X6X5X6X6X6X6X6X6X6X6X6X6XeXSX# v.(.f.y.z.z.j.J.f.v.W.% L E 2 yXeX:XMX7XmX|.4X6X6X6X6X6X6X6X6X6X",
"6X6X6X6X6X6X6X6X6X6X6X6X6X6X6XeX- ) * B.k.C.P.P.l.l.b.T.% j ) E ;.0 @XVXjX6X3X6X6X6X5X6X6X6X6X6X6X6X",
"6X6X6X6X6X6X6X6X6X6X6X6X6X6X6XeXt G % R.n.V.s.s.D.d.~.U.+ Q Q [ ;.q yX`.<X6XmX[.3X4X3X4X4X6X6X6X6X6X",
"6X6X6X6X6X6X6X6X6X6X6X6X6X6X6XgXr z $.$ U.c.(.B.M.8.T.& < E X.v ;.  LXZXfX6X[.3X3X3X4X4X6XhXhX6X6X6X",
"6X6X6X6X6X6X6X6X6X6X6X6X6X6X6XgXw v T H @ A 8.U.T.# b M ` x ..v f e #XeXnX6X3X5X3X3X4X4X4X4XhX6X6X6X",
"6X6X6X6X6X6X6X6X6X6X6X6X6X6X6XgX%Xr +.M P F @ = , > _ I P H E x 2 GX$XeXMX3X5X5X3X4X6X6X6XhX6X6X4X6X",
"6X6X6X6X6X6X4X6X6X6X6X6X6X6X6XgXiXp u W M ] $.k x | G U S I / z 9 UXBXwX}.7X6X5X3X4X6XhX6XhX6X6X6X6X",
"6X6X6X6X6X6X4X5X6X6X6X6X6X6X6X6XKX. s O.R I j #.c %.I U Y h / <.3 ).eXMXjXmX4X].4X4X6X6X6XhX6X6X6X6X",
"6X6X6X6X6X6X6X6X6X6X6X6X6X6X6XhXzXuXd u W D ) c o.k K I F ) <.5 rXIXVXjX3X4X3X6X4X5X6X6X2X6X5X5X6X6X",
"6X6X6X6X6X6X6X6X6X6X6X6X6X6X6X6XVXXXuXw i ( ` Q  .{ Q W T N 5 PXbX:X'.jX6X6X3XjX6X6X6X6X6X6X1X5X6X6X",
"6X6X6X6X6X6X6X6X6X6X6X6X6X6X6X6X|.4XxX$X7 ; : { v ,.g } 8 7 FXvXxX4X6X6X3X6X6X4X6XhX6XfX6X5X5X5X6X6X",
"6X6X6X6X6X6X6X6X6X6X6X6X6X6X6X6X8X,XhXVXaXHXX 6 a 4 -.1 #XAXXXjX4X4XjX4X|.6XjX6XfX6XfXjX6X5X5X,X5X6X",
"6X6X6X6X6X6X6X6X6X6X6X6X6X6X6X5X,X5X[.4XgXeXGXuXbXbXzXgXnX2X6X6X6X3X3X6X3X6XjX6XhXfXfX6X5X5X5X5X6X6X",
"6X6X6X6X6X6X6X6X6X6X6X6X6X6X6X4X5X5X6X6X4XfXfXfXhXhXfXhX6X6X6X6X6X6X6X6X6X6X6X6X6X6X4X4X6X6X4X5X4X4X",
"6X6X4X4X6X6X6X6X6X6X6X6X6X6X6X5X6X6X6X6X6X6X6X6X4X6X6X6X6X6X6X6X6X6X6X6X6X6X6X6X6X6X6X6X6X6X6X6X6X6X",
"6X6X5X6X4X5X6X6X6X6X6X6X6X6X6X6X6X6X6X6X6X6X6X6X6X6X6X6X6X6X6X6X6X6X6X6X6X6X6X6X6X6X6X6X6X6X6X6X6X6X",
"6X6X6X6X4X6X6X6X6X6X6X6X6X6X6X6X6X6X6X6X6X6X6X6X6X6X6X6X6X6X6X6X6X6X6X6X6X6X6X6X6X6X6X6X6X6X6X6X6X6X",
"6X6X6X6X6X6X6X6X6X6X6X6X6X6X6X6X6X6X6X6X6X6X6X6X6X6X6X6X6X6X6X6X6X6X6X6X6X6X6X6X6X6X6X6X6X6X6X6X6X6X",
"6X6X6X6X6X6X6X6X6X6X6X6X6X6X6X6X5X4X6X6X6X6X6X6X6X6X6X6X6X6X6X6X6X6X6X6X6X6X6X6X6X6X6X6X6X6X6X6X6X6X",
"6X6X6X6X6X6X6X6X6X6X6X6X6X6X6X6X6X4X6X6X6X6X6X6X6X6X6X6X6X6X6X6X6X6X6X6X6X6X6X6X6X6X6X6X6X6X6X6X6X6X",
"6X6X6X6X6X6X6X6X6X6X6X6X6X6X6X6X6X6X6X6X6X6X6X6X6X6X6X6X6X6X6X6X6X6X6X6X6X6X6X6X6X6X6X6X6X6X6X6X6X6X",
"4X4X6X6X6X6X6X6X6X6X6X6X6X6X6X6X5X6X6X6X6X6X6X6X6X6X6X6X6X6X6X6X6X6X5X4X6X6X6X6X6X6X6X6X6X6X6X6X6X6X",
"5X6X6X6X6X6X6X6X6X6X5X4X6X6X6X6X4X4X6X6X6X6X6X6X6X6X6X6X6X6X6X6X6X6X6X4X6X6X6X6X5X4X6X6X6X6X6X6X6X6X",
"6X6X6X6X6X6X6X6X6X6X6X4X6X6X6X6X6X6X6X6X6X6X6X6X6X6X6X6X6X6X6X6X6X6X6X6X6X6X6X6X6X6X6X6X6X6X6X6X6X6X",
"6X6X6X6X6X6X6X6X6X6X6X6X6X6X6X6X6X6X6X6X6X6X6X6X6X6X6X6X6X6X6X6X6X6X6X6X6X6X6X6X6X6X6X6X6X6X6X6X6X6X",
"6X6X6X6X6X6X6X6X4X6X6X6X6X6X6X6X6X6X6X6X6X6X6X6X6X6X6X6X6X6X6X6X6X6X6X6X6X6X6X6X6X6X4X6X6X6X6X6X6X6X",
"6X6X6X6X6X6X6X6X4X6X6X6X6X6X6X6X6X6X6X6X6X6X6X6X6X6X6X6X6X6X6X6X6X6X6X6X6X6X6X6X6X5X4X6X6X6X6X6X6X6X",
"6X6X6X6X6X6X6X6X5X6X6X6X6X6X6X6X6X6X6X6X6X6X6X6X6X6X6X4X4X5X6X6X6X6X6X6X6X6X6X6X6X6X6X6X6X6X6X6X6X6X",
"6X6X6X6X6X6X6X6X6X6X6X6X6X6X6X6X6X6X6X6X6X6X6X6X6X6X5X4X6X6X6X6X6X6X6X6X6X6X6X6X6X6X6X6X6X6X6X6X6X6X",
"6X6X6X6X6X6X6X6X6X6X6X6X4X4X6X6X6X6X6X6X6X6X6X6X6X6X6X6X6X6X6X6X6X6X6X6X6X6X6X6X6X4X4X6X6X6X6X6X6X6X",
"6X6X6X6X6X6X6X6X6X6X6X6X6X5X6X6X6X6X6X6X6X6X6X6X6X6X6X6X6X6X6X6X6X6X6X6X6X6X6X6X6X6X5X6X6X6X6X6X6X6X"
};
