/* XPM */
static char *c1[] = {
/* columns rows colors chars-per-pixel */
"50 50 256 2",
"   c #131102",
".  c #1B1C0C",
"X  c #051E25",
"o  c #09241D",
"O  c #18251B",
"+  c #1B2914",
"@  c #1E2213",
"#  c #002C2F",
"$  c #04252E",
"%  c #002C33",
"&  c #002A3A",
"*  c #0A2832",
"=  c #00322B",
"-  c #003333",
";  c #00313B",
":  c #003A3C",
">  c #093C3D",
",  c #1F2921",
"<  c #1B2A2D",
"1  c #193638",
"2  c #221300",
"3  c #221A08",
"4  c #2F1F08",
"5  c #281B12",
"6  c #281C1C",
"7  c #231C1B",
"8  c #29220F",
"9  c #262012",
"0  c #2E2414",
"q  c #2F2815",
"w  c #2F251B",
"e  c #33240D",
"r  c #352C1B",
"t  c #2E2D21",
"y  c #272F31",
"u  c #2B3E38",
"i  c #243C3A",
"p  c #383B32",
"a  c #352727",
"s  c #023A47",
"d  c #0E3942",
"f  c #113740",
"g  c #163A4C",
"h  c #1C3B4A",
"j  c #163D45",
"k  c #293E43",
"l  c #253B47",
"z  c #223E53",
"x  c #3E3C47",
"c  c #353942",
"v  c #1F473F",
"b  c #175732",
"n  c #25413B",
"m  c #2E433E",
"M  c #2E5631",
"N  c #2E5B3C",
"B  c #36482E",
"V  c #354137",
"C  c #3A433C",
"Z  c #1E4047",
"A  c #124246",
"S  c #1B4351",
"D  c #1E4D53",
"F  c #1E5155",
"G  c #1E6140",
"H  c #274547",
"J  c #21434A",
"K  c #20494B",
"L  c #2B4544",
"P  c #2B424B",
"I  c #294C49",
"U  c #264758",
"Y  c #234853",
"T  c #25495B",
"R  c #2B4450",
"E  c #2B445A",
"W  c #2A4851",
"Q  c #294E5E",
"!  c #224356",
"~  c #285943",
"^  c #25515E",
"/  c #2B5253",
"(  c #2E535B",
")  c #324C41",
"_  c #3F4B44",
"`  c #384549",
"'  c #304651",
"]  c #33465B",
"[  c #304E56",
"{  c #345256",
"}  c #31535B",
"|  c #3B5353",
" . c #245863",
".. c #295463",
"X. c #314C62",
"o. c #375066",
"O. c #355468",
"+. c #286343",
"@. c #2C6749",
"#. c #26614B",
"$. c #3A6166",
"%. c #432C1C",
"&. c #454B3F",
"*. c #4C5A43",
"=. c #406546",
"-. c #4E664C",
";. c #188974",
":. c #1F937E",
">. c #218D7D",
",. c #22927E",
"<. c #3C886E",
"1. c #319F7A",
"2. c #3D9774",
"3. c #3D977E",
"4. c #3F9D7B",
"5. c #369279",
"6. c #26A079",
"7. c #2FA37E",
"8. c #489875",
"9. c #4F9F7A",
"0. c #4B937B",
"q. c #559175",
"w. c #16988E",
"e. c #1C9487",
"r. c #189A92",
"t. c #1DA686",
"y. c #2E8D87",
"u. c #269082",
"i. c #229C83",
"p. c #2C9383",
"a. c #289689",
"s. c #2B9A8C",
"d. c #2E9A93",
"f. c #348D87",
"g. c #3A8C8A",
"h. c #398791",
"j. c #33948E",
"k. c #319E87",
"l. c #349D8B",
"z. c #39968B",
"x. c #3B9B8B",
"c. c #329B93",
"v. c #35989D",
"b. c #389290",
"n. c #349492",
"m. c #20A381",
"M. c #29A388",
"N. c #26A091",
"B. c #24A799",
"V. c #29A492",
"C. c #31A28C",
"Z. c #35A493",
"A. c #31A399",
"S. c #39A996",
"D. c #36AA9D",
"F. c #3DB39B",
"G. c #2BA2A0",
"H. c #32B2A5",
"J. c #468688",
"K. c #468F86",
"L. c #47978E",
"P. c #499B8A",
"I. c #439A9D",
"U. c #4C959A",
"Y. c #4A9195",
"T. c #51938F",
"R. c #50969E",
"E. c #519998",
"W. c #489DA2",
"Q. c #D2A882",
"!. c #D4B596",
"~. c #E4BA9C",
"^. c #ECBF98",
"/. c #E5B496",
"(. c #F6B887",
"). c #F3BC8B",
"_. c #F9BB8C",
"`. c #FAB58C",
"'. c #F1B09A",
"]. c #F2BD94",
"[. c #FFB595",
"{. c #FDBC92",
"}. c #FEBC9A",
"|. c #F4B99B",
" X c #FFBDA3",
".X c #C6D0AE",
"XX c #D0C2AC",
"oX c #D3CFAA",
"OX c #D9C6B3",
"+X c #DEC2BE",
"@X c #DDCAB3",
"#X c #D6D0AE",
"$X c #D9D1AC",
"%X c #D0DDBF",
"&X c #DCD5B4",
"*X c #D9DDBA",
"=X c #C5D8B8",
"-X c #E4C086",
";X c #EEC28C",
":X c #E9C09D",
">X c #EEC994",
",X c #F3C18D",
"<X c #FEC08E",
"1X c #F6C094",
"2X c #F4C39B",
"3X c #F5CB94",
"4X c #F6CA9D",
"5X c #FEC594",
"6X c #FEC59B",
"7X c #FCC995",
"8X c #FDC89A",
"9X c #F7D097",
"0X c #FDD19D",
"qX c #E6C7A8",
"wX c #E6CBAC",
"eX c #EECCA2",
"rX c #EACCAB",
"tX c #EAC4A0",
"yX c #E5C5B0",
"uX c #E3CCB5",
"iX c #EDC0B0",
"pX c #E1CCBB",
"aX c #EBD0AE",
"sX c #E5D3B5",
"dX c #ECD4BA",
"fX c #F6C6A2",
"gX c #F4CAA3",
"hX c #F2CBAA",
"jX c #FEC5A1",
"kX c #FFC3A8",
"lX c #FDCAA1",
"zX c #FDCDAA",
"xX c #F4CCB4",
"cX c #FFCAB4",
"vX c #F3D5AF",
"bX c #FFD1A2",
"nX c #FED2AA",
"mX c #FEDAA3",
"MX c #FFDAAF",
"NX c #F4D5B5",
"BX c #F2D7BA",
"VX c #FCD4B4",
"CX c #FDDBB1",
"ZX c #FFE2BE",
"AX c #CCCCC0",
"SX c #C3DBC1",
"DX c #D3D4CE",
"FX c #C9E4C5",
"GX c #DAE5C7",
"HX c #EDD7C0",
"JX c #EFD5C8",
"KX c #E9DBC5",
"LX c #F4DBC2",
"PX c #F9D3C0",
"IX c #E1E3CE",
"UX c #FFE9D2",
/* pixels */
"8X8X8X8X8X8X8X8X8X8X8X8X8X8X8X8X8X8X8X8X8X8X8X8X8X8X8X8X8X8X8X8X8X8X8X8X8X8X8X8X8X8X8X8X8X8X8X8X8X8X",
"8X8X8X8X8X8X8X8X8X6X8X8X8X8X8X8X8X8X8X8X8X8X8X8X8X8X8X8X8X8X8X8X8X8X8X8X8X8X8X8X8X8X8X8X8X8X8X8X8X8X",
"8X8X8X8X8X8X8X8X8X5X8X8X8X8X8X8X8X8X8X8X8X8X8X8X8X8X8X8X8X8X8X8X8X8X8X8X8X8X8X8X8X8X8X8X8X8X8X8X8X8X",
"8X8X8X8X8X8X8X8X8X8X8X8X8X8X8X8X8X8X8X8X8X8X8X8X8X8X8X8X5X8X8X8X8X8X8X8X8X8X8X8X8X8X8X8X8X8X8X8X8X8X",
"8X8X8X8X8X8X8X8X8X8X8X8X8X8X8X8X8X8X8X8X8X8X8X8X8X8X8X8X6X8X8X8X8X8X8X8X8X8X8X8X8X8X8X8X8X8X8X8X8X8X",
"8X8X8X8X8X8X8X8X8X8X8X8X8X8X8X8X8X8X8X8X5X8X8X8X8X8X8X8X8X8X8X8X8X6X8X8X8X8X8X8X8X8X8X8X8X8X8X8X8X8X",
"8X8X8X8X8X8X8X8X8X8X8X8X8X8X8X8X8X8X8X8X6X8X8X8X8X8X8X8X8X8X8X8X5X6X8X8X8X8X8X8X8X8X8X8X8X8X8X5X8X5X",
"8X8X8X8X8X8X8X8X8X8X8X8X8X8X8X8X8X8X8X8X8X8X8X8X8X8X8X8X8X8X8X8X8X8X8X8X8X8X8X8X8X8X8X8X8X8X8X8X6X6X",
"8X8X8X8X8X8X8X8X8X8X8X8X8X8X8X8X8X8X8X8X8X8X8X8X8X8X8X8X8X8X8X8X8X8X8X8X8X8X8X8X8X8X8X8X8X8X8X8X8X8X",
"8X8X5X8X8X8X8X8X8X8X8X8X8X8X8X8X8X8X8X8X8X8X8X8X8X8X8X8X8X8X8X8X8X8X8X8X5X8X8X8X8X8X8X8X8X8X8X8X8X8X",
"8X8X8X8X8X8X8X8X8X8X8X5X8X8X8X8X8X8X8X8X8X8X8X8X8X8X8X8X8X8X8X8X8X8X8X8X8X8X8X8X8X8X8X8X8X8X5X8X8X8X",
"8X8X8X8X8X8X8X8X8X8X8X8X8X8X8X8X8X8X8X8X8X8X8X8X8X8X8X8X8X8X5X8X8X8X8X8X8X8X8X8X8X8X8X8X8X8X8X8X8X8X",
"8X8X8X8X8X8X8X8X8X8X8X8X8X8X8X8X8X8X8X8X8X8X8X8X8X8X8X8X8X8X8X8X8X8X8X8X8X8X8X8X8X8X8X8X8X8X8X8X8X8X",
"8X8X8X8X8X8X8X8X8X8X8X8X8X8X6X5X8X8X8X8X8X8X8X8X8X8X8X8X8X8X8X8X8X8X8X8X8X8X8X8X8X8X5X8X8X8X8X8X8X8X",
"8X8X8X8X8X8X8X8X8X8X8X8X8X8X8X8X8X6X8X8X8X8X8X8X8X8X8X8X6X6X8X8X8X8X8X8X8X8X8X8X8X8X6X8X8X8X8X8X8X8X",
"8X8X8X8X8X8X8X8X8X8X8X8X8X8X8X8X8X5X8X8X8X8X8X8X8X8X6X8X6X5X8X8X8X8X8X8X8X8X8X8X8X8X8X8X8X8X8X8X8X8X",
"8X8X8X8X8X8X8X8X8X8X8X8X8X8X8X8X8X5X8X8X8X4X8X8X8X6X6X6X6XjX6X6X8X8X8X8X8X8X8X8X8X8X8X8X8X8X8X8X8X8X",
"8X8X8X8X8X8X8X8X8X8X8X8X8X8X8X8X8X8X8X8X8X8X8X8XjX6XjX6X6X6X4X8X8X8X8X8X8X8X8X8X8X8X8X8X8X8X8X8X8X8X",
"8X8X8X8X8X8X8X8X8X8X8X8X8X8X8X8X4X4X4X8XlX4X6X6X6XjXjXjX8X4XlX4X8X8X8X8X8X8X8X8X8X8X8X8X8X8X8X8X8X8X",
"8X8X8X8X8X5X8X8X8X8X8X8X8X8X8X4X4X4X4X4X8X8X6X6X6X6X6X6XjX4XfX4X6X8X8X8X8X8X8X8X8X8X8X8X8X8X8X8X8X8X",
"8X8X8X8X8X8X8X8X8X8X8X8X8X8X8X8X6XjXjX6X6X6X8X5X6X5X5X6X6X6XjX6X6X8X8X8X8X8X8X8X8X8X8X8X8X8X8X8X8X8X",
"8X8X8X8X8X8X8X8X8X8X8X8X8X8X8X8X6XjXjXjX6X6X8X5X5X8X6X8X6X6XjXjX6X8X8X8X8X8X8X8X8X8X8X8X8X8X8X8X8X8X",
"8X8X8X8X8X8X8X8X8X8X8X8X8X8X8X8XjXjX6X6X6X8X8X7X8X5X7X5X6X}.}.6X8X8X8X8X8X5X8X8X8X8X8X8X8X8X8X8X8X8X",
"8X8X8X8X8X8X8X8X8X8X8X8X8X8X8X8X6X6X6X6X8X8X7X3X3X3X7X7X8X5X6X6X8X8X8X8X8X8X8X8X8X8X8X8X8X8X8X8X8X8X",
"8X5X8X8X8X8X8X8X8X8X8X8X8X8X8X8XbX;X0X0X1X7X,X3X9X-X0X9X9X).mX5X8X8X8X8X8X8X8X8X8X8X8X8X8X8X8X8X8X8X",
"8X6X8X8X8X8X8X8X8X8X8X8X8X8X8X8X0X3X7X).0X8XCX8X3XmX>XgX9X0X0X).8X8X8X8X8X8X8X8X8X8X8X8X8X8X8X8X8X8X",
"8X8X8X8X8X8X8X8X8X8X8X8X8X8X8X8X).3X0XbX{.}.[. XjXjXfX3X0X1X).0X8X8X8X8X8X8X8X8X8X8X8X8X8X8X8X8X8X8X",
"8X8X8X8X8X8X8X8X8X8X8X8X8X8X8X5X7X3X(.jXzXkXcXcXcX/.nXnXlXbX8X8X8X8X8X8X8X8X8X8X8X8X8X8X8X8X8X8X8X8X",
"8X8X8X8X8X8X8X8X8X8X8X8X8X8X8X5X<X0X_.6XVX'.cX~.wXLXuXNX:X|.nX`.6X6X8X8X8X8X8X8X8X8X8X8X8X8X8X8X8X8X",
"8X8X8X8X8X8X8X8X8X8X8X8X8X8X8X8X7X7X6XjX~.UXXXIX*.B GX&XaXnXjXnX6X8X8X8X8X8X8X8X8X8X8X8X8X8X8X8X8X8X",
"8X5X8X8X8X8X8X8X8X8X8X8X8X8X8X8X5X).jXCX$X=XN G 8.9.b M *XaX|.}.6X8X8X8X8X8X8X8X8X8X8X8X8X8X8X8X8X8X",
"8X6X8X8X8X8X8X8X8X8X8X8X8X8X8X8X5XbXeXoXFX+.2.7.,.1.4.q.+ @XxXkX6X5X8X8X8X8X8X8X6X6X8X8X8X8X5X8X8X8X",
"8X8X8X8X6X8X8X8X8X8X8X8X8X8X8X8X8X4X&XSX#.3.M.6.t.6.l.= ` a +XPX2X8X8X5X7X_.8X1X8XjXlXfX8X8X5X5X7X8X",
"8X8X8X8X5X8X8X8X8X8X8X8X8X8X8X6X8XaX%X~ P.l.i.t.t.V.z.: ' x 7 @XzX{._.0X8X5XnXzXjXjXlXjX8X8X5X5X8X8X",
"8X8X8X8X8X8X8X8X8X8X8X8X8X8X8X6X4X#X=.0.x.>.S.a.:.,.n.E.% k _ 0 vXMXbX).{.8X{.6XjX8XlXjX8X8X7X5X8X8X",
"8X8X8X8X8X8X8X8X8X8X8X8X8X8X8XfXeX.X@.5.,.S.a.l.C.Z.y.g.- / n + dXQ.fXbXbX8X8X{.8XjXlX4X8X7X7X5X8X8X",
"8X8X8X8X8X8X8X8X8X8X8X8X8X8X8XgXsX-.<.C.V.V.u.l.C.C.l.y.: F 1 _ e NXZX^.8X].5XbX6X8X8X8X8X8X8X7X8X8X",
"8X8X8X8X8X8X8X8X8X8X8X8X8X8X8XgXoXC P.e.B.H.a.p.;.S.c.s.U.% / u 3 LX!.hXzX1X7X5X8X8X8X8X8X8X8X8X8X8X",
"8X8X8X8X8X8X8X8X8X8X8X8X8X8X8XgXKX$ L.A.r.w.N.S.F.;.s.n.U.% h _ r OXdXrXbXbX8X8X5X7X8X8X8X4X7X8X8X8X",
"8X8X8X8X8X8X8X8X8X8X8X8X8X8X8XhXw H - c.G.e.D.:.i.C.c.I.& ^ J L p 0 uXNX4X].7X5X5X5X7X8X8X7X7X8X8X8X",
"8X8X8X8X8X8X8X8X8X8X8X8X8X8X8XhXw i - I.v.d.c.p.C.>.h.R.& S K L C r @XrXhX8X7X5X5X5X7X8X8X8X4X8X8X8X",
"8X8X8X8X8X8X8X8X8X8X8X8X8X8X5XhX8 | F ; h.W.f.z.p.z.Y.s T ! K I p 3 HXrXgX,X8X5X5X5X7X8X8X8X7X8X8X8X",
"8X8X8X8X8X8X8X8X8X8X8X8X8X8X8XgX. m D  .& s J.T.K.: s g z O.D K &.2 dXNXnX8X5X<X5X5X7X8X8X7X4X8X8X8X",
"8X8X8X8X8X8X8X8X8X8X8X8X8X8X4XgXKXO I j ..S d # > > Q X.X.h A H . HXBX:X2X].8X8X5X7X8X8X8X4X8X8X8X8X",
"8X8X8X8X8X8X8X8X8X8X8X8X8X8X8XfXdX  m { Y T R P H S E X.z z $.i q rX~.zX2XnX5X5X6X8X8XjX8X8X8X8X6X8X",
"8X8X8X8X8X8X8X8X8X8X8X8X8X8X8XjXxX%.p H h h R P H } g ! ] l ` C 4 NXzXfX6X5XjX{.6X8XjX6X8X8X8X7X8X8X",
"8X8X8X8X8X8X8X8X8X8X8X8X8X8X8XjX XiXt n } } P P [ > Q g o.] ` 7 uX:XCXlX5X{.5X8X6X6XlXjX6X8X8X7X8X8X",
"8X8X8X8X8X8X8X8X8X8X8X8X8X8X8X8X6XcX@X+ i I { P l } S T z c 6 JXxXgX2X8XnX8X6X6X8XjX6X8X8X8X8X8X8X8X",
"8X8X8X8X8X8X8X8X8X8X5X8X8X8X8X6XlX|.VXrX8 t l U U l } k y 5 xX4X4X8X8X8X8X8X8X8X8X6X6X8X8X8X8X8X8X8X",
"8X8X8X8X8X8X8X8X8X8X8X8X8X8X8X8X6XbX).bXsX=X< $ * 1 X < DXOXzX5X8X6X8X8X8X8X8X8X8X8X8X8X8X8X8X8X8X8X"
};
