/* XPM */
static char *mur so_long propre[] = {
/* columns rows colors chars-per-pixel */
"50 50 41 1",
"  c #CB5E37",
". c #CF623B",
"X c #D3643E",
"o c #D66640",
"O c #D56A42",
"+ c #D96742",
"@ c #DA6B45",
"# c #DE6E48",
"$ c #DC7146",
"% c #DD714A",
"& c #DF784F",
"* c #E06C47",
"= c #E16E4A",
"- c #E46E50",
"; c #E2734C",
": c #E4784D",
"> c #E8724F",
", c #E57650",
"< c #E57951",
"1 c #E97551",
"2 c #EB7458",
"3 c #E97A54",
"4 c #EE7E58",
"5 c #F07C57",
"6 c #F17E59",
"7 c #F47E60",
"8 c #EC8255",
"9 c #ED815A",
"0 c #EE895C",
"q c #F2835C",
"w c #F48A5D",
"e c #F58660",
"r c #F58962",
"t c #F88562",
"y c #FA8A64",
"u c #FD8E68",
"i c #FC9364",
"p c #FE916A",
"a c #FF9670",
"s c #FF9872",
"d c #FF9F78",
/* pixels */
"@<9;r&;e%%yue9y&yrO&&Oy&<r%%O<<-tt,t:q=3@4e##=u,72",
"3<%aOe339;9%&;0O009OO9r89p&&<yuuuu6t4y6e443,3#q62-",
"O%3 d<0u99p###y<&r&&&<t&0a<999<@=:#::6qy4446t96:61",
";3OwO9%;%&u%;%yqr<d0ys;r%<%4r4&@,,=@@@=#:t63qtq@64",
"r0y9e;9%<O<&y<9&%0,qr&<&%-%&r4rp@#:,6qyt3u3@#36469",
"#e<O9<o;;%3ey&%@&ru&<t3r&&%&0&4rrtqq46,#3t##;#:tO&",
"uqep<94O@&4e4%O<Op-@;@reO%&4r%&r:3=3;q=##q=4,;#t4q",
"@<%#re&%&q<r9pqy-y&#<+<yyr00a%8a$3X,=t3##u,#@,,t$4",
"&@;;9<9rr3<9q<#@ty=*=:%r%&@&rr<r;#3@3#33,6:@=:u%w:",
"&<rupqqrr9yap##4ut6+3#3u-&#&90<r;X$@tqut4u,,==9+$8",
"rq<&%<;;3#&<0%;4@,>y9u4q&%@%<7rry333q3:*1p,6464:8w",
"ruqq%<%%O&<3epr<3;6&6@3@q&-<9r04tqqtq,#;Oe:39q69:$",
"#9qeO%#<;urr&r9e@;%r;yryuqtt4<2&::2t6:#,,e3#q::388",
"rq9rerer9e<e%;#3eep9u;<@3qyt3@@;#@#334==t69,t###X8",
"<@&9ar<O<<9up9&O<e%@o&@,+:2361@1#3=63tey6336t4=:8w",
"&@<;4&euequO<#yy%03$4=#,=:+=ut==3t64+&,q3@#69e=:w:",
"%9rppr33t##11=@1ee;#:=#=#,>##u3u63qt#,@u@6@:+yqu#=",
"&py%O;30,#1+=51=94,@3@@,>#@:uO,#a4:,3q<6+<@,3u6q>>",
"e0<;&;<9t,;&=#o#6ee9u3#3%q>qq33@6###36qu3,#,qt,;tt",
"e;O%<%@3q##1,;<y,91,96#=;quq;u,t,;3#=+,6t633t3=;>>",
"3r4O+#,6399,&qrt6p,=,pttq:y#3@,a93#@,:6,66q3t;=3==",
"6t6134eu99r949&;1u,=#y=#3q##>X34q4@#6quw34q4t##:*=",
"1114t639;X%4r0%<;er6y63&#u#3+3,#tu66,363#344t4;@66",
"*uu5,13,<&;%9y4O#%9&y=6u,#t=,##y=e,q333@###,ty8354",
"u>X1u6,t@<;&9r#&#::q,,@:664:+=tuq,t334t+:#36t44uy6",
"=11,;*4p<Ou9y0y;#>y#3@,@46uu4343,+344;q6tutu:@=qt4",
"===##3439%u:,&y919t9##:>446q6q63,@=,3;16tqqu@&3t6&",
"=#,>@3938yq$O%#uy63t>,#tq,@#<q63=1&*4q3#t3=u@=#=y4",
"3O#&=4yw3ty,;>=tu=&=t:qt3;;=:663#:#:6t63t&+u#=#,4:",
"e&&9yr3%3#y>;@q2e:@#qtyq@#3,#3ty,#=u93:9w:=t#:3y66",
",9upr<#%>Xq*>=q>64+64u46>;=;#4uyq34u3##4ytqq3#:4;:",
"re&%er<;X5q9yy#=y#,6u@@:t,#;,64Ou64t@,>@,66,qt634q",
"r,##=u===4693;et;er;q&&#u<@<e9;#134y;;@#;uttqt#3=>",
"9y1&:ue#39qt66q;&&e;u%;;44<q34&&<y66u6@4qt#:3y;@>>",
"#t#=+,u6ye=##4t<&<@r<9#r<q3r&r;&ee3<t6,43q+##u>3>-",
"tt&4:4yu63##=36:@4@p&r<rq9&43r3&u@;1#=y:;y:3#6@@--",
"u:+#:e#@66=,:=eeO<yqy3q3y&##4<9qtO,=@#t>#q@46u:#+=",
"33t64p3=u6:=+#tu43r<<&r3r&<o<O9u=<:#,;&6;63qtu9tt7",
"+3qt,6,=,633:4q#yq&<.&33e<<O<%ru+3##3>#uqtuqt=@461",
"uy=yy94@39,@@eu#r#,<<O&Oy9&#3rrq&=#2+,6p3##;u=##q2",
"q;&#4q#&6,t4r6:eqq<#4@%&rrqqe439u=3:#=t#@3;:6u:#63",
"t##=@tutte66t:=&<r&O#&4qrrq0e<%&6@#3uquty@@;u#4p14",
"ut:,@6t:,4#3t#>@%u9e<qqr&<<qe;#%s6==q:=y;u36#uy@#1",
"3p@>yu=#@#@#q=,#;rrpqqq0O@%4q<$,33quu#@,qu4;=#u@1=",
";u&6u6&,,#3:t6;:r4<;<%qr&&%39<;0q36y=3yyq6#46#t,,=",
"69qt3@6t#+3#qu4qy&@O&Oyu<;#<9<3r6<9u3uu=@u6y:uy##,",
":Xt4##uu;#3#q66t0<%<<;rq3;;4w38u4=+#&uu6rtu#3#6y,6",
"&;uX3###tuq4q#4=rr<9%493ureyy43t@3#,1q::<tt3#==yq3",
"y4r8O=1&y#-&61O3r;9<0i:<;q1--#ww&=#*6q==&=t=1=&t=&",
"<;rw,,-=t=-1e1#939<0088:&r>==:wr====tt=1=1t=-1=ett"
};
