/* XPM */
static char *perso so_long propre[] = {
/* columns rows colors chars-per-pixel */
"50 50 256 2",
"   c #000306",
".  c #00030B",
"X  c #000A0C",
"o  c #080007",
"O  c #020B04",
"+  c #000212",
"@  c #000B12",
"#  c #020919",
"$  c #00110C",
"%  c #001004",
"&  c #001315",
"*  c #00141A",
"=  c #021618",
"-  c #130A00",
";  c #14180B",
":  c #161B15",
">  c #180A17",
",  c #001A23",
"<  c #03221D",
"1  c #1B2416",
"2  c #022928",
"3  c #002C34",
"4  c #04362C",
"5  c #013033",
"6  c #053A3C",
"7  c #1A2A25",
"8  c #1A3939",
"9  c #261808",
"0  c #241D14",
"q  c #341F0E",
"w  c #341C18",
"e  c #272518",
"r  c #342A18",
"t  c #362818",
"y  c #302A14",
"u  c #282B23",
"i  c #28362A",
"p  c #2B3B3A",
"a  c #243837",
"s  c #352C21",
"d  c #343325",
"f  c #3B3B35",
"g  c #033B40",
"h  c #073A42",
"j  c #1B3B43",
"k  c #1B3C4B",
"l  c #163844",
"z  c #1C3E51",
"x  c #232F45",
"c  c #243C43",
"v  c #233D4A",
"b  c #2A3D44",
"n  c #2C3C4D",
"m  c #283548",
"M  c #223B52",
"N  c #2B3E52",
"B  c #253D59",
"V  c #333B41",
"C  c #373F4A",
"Z  c #333C52",
"A  c #00413E",
"S  c #1C423A",
"D  c #1D5434",
"F  c #18623D",
"G  c #2A453C",
"H  c #275836",
"J  c #39423B",
"K  c #35443B",
"L  c #335836",
"P  c #294721",
"I  c #064547",
"U  c #075947",
"Y  c #035B52",
"T  c #1D434B",
"R  c #1B4A4B",
"E  c #174548",
"W  c #1B4253",
"Q  c #194A55",
"!  c #175658",
"~  c #006B5C",
"^  c #046556",
"/  c #087467",
"(  c #196C65",
")  c #18796C",
"_  c #1F7C72",
"`  c #0B6E69",
"'  c #234145",
"]  c #24434C",
"[  c #25494C",
"{  c #2D4246",
"}  c #2B444C",
"|  c #2B494C",
" . c #244352",
".. c #22445A",
"X. c #244A52",
"o. c #24495A",
"O. c #2A4452",
"+. c #2B455A",
"@. c #2B4A54",
"#. c #2C4A5A",
"$. c #285749",
"%. c #2A505B",
"&. c #265455",
"*. c #334A42",
"=. c #364648",
"-. c #324551",
";. c #324B53",
":. c #324C5B",
">. c #384858",
",. c #365847",
"<. c #315159",
"1. c #385457",
"2. c #2E4F60",
"3. c #2B5564",
"4. c #324B65",
"5. c #385464",
"6. c #286444",
"7. c #346543",
"8. c #22716B",
"9. c #403428",
"0. c #47423F",
"q. c #424A4A",
"w. c #484B57",
"e. c #425459",
"r. c #435349",
"t. c #496449",
"y. c #4B704E",
"u. c #406261",
"i. c #5D7F7E",
"p. c #437E84",
"a. c #597D83",
"s. c #0F9175",
"d. c #1B8678",
"f. c #16927A",
"g. c #24957B",
"h. c #35847F",
"j. c #36967A",
"k. c #318974",
"l. c #3BA37E",
"z. c #4C867C",
"x. c #439377",
"c. c #57857A",
"v. c #509375",
"b. c #1D8B80",
"n. c #1C988A",
"m. c #1B9C92",
"M. c #1EA498",
"N. c #2E8B80",
"B. c #2B9C8B",
"V. c #269586",
"C. c #299994",
"Z. c #3C8988",
"A. c #34938B",
"S. c #369888",
"D. c #3A9E92",
"F. c #359996",
"G. c #28A18D",
"H. c #26A595",
"J. c #35A389",
"K. c #37A695",
"L. c #3DB19C",
"P. c #29A6A0",
"I. c #488884",
"U. c #488E90",
"Y. c #499785",
"T. c #499794",
"R. c #548886",
"E. c #518E93",
"W. c #539086",
"Q. c #579596",
"!. c #44B199",
"~. c #44A48C",
"^. c #628889",
"/. c #E3BA7C",
"(. c #BCCFB1",
"). c #ADDCC8",
"_. c #C2BB9F",
"`. c #DCBA9E",
"'. c #D5BCA7",
"]. c #E8B78A",
"[. c #E8BA97",
"{. c #F3BB8C",
"}. c #FCBE8B",
"|. c #F9B887",
" X c #FEBC9B",
".X c #F3BC93",
"XX c #F8BEA3",
"oX c #E1BAA9",
"OX c #DCC196",
"+X c #C0CEAA",
"@X c #CFC9B3",
"#X c #C7D3AB",
"$X c #C6D5B7",
"%X c #D7C7AA",
"&X c #DAC9B5",
"*X c #D9D3B8",
"=X c #D7D3A6",
"-X c #D0E2B8",
";X c #EDC18A",
":X c #EBC398",
">X c #EFD195",
",X c #FFC285",
"<X c #FDC28D",
"1X c #FFC98D",
"2X c #F2C78D",
"3X c #F4C592",
"4X c #F4C19A",
"5X c #F5CC95",
"6X c #F5CC9B",
"7X c #FEC594",
"8X c #FEC59B",
"9X c #FDC994",
"0X c #FDC89A",
"qX c #F1D095",
"wX c #FDD19D",
"eX c #FAD597",
"rX c #E2C4A9",
"tX c #EBC4A2",
"yX c #EFCAA2",
"uX c #ECCAAB",
"iX c #E3C9A8",
"pX c #E3CBB4",
"aX c #EACBB3",
"sX c #E4CBB9",
"dX c #EED0AE",
"fX c #EBD4BB",
"gX c #E7D4B8",
"hX c #F4CBA2",
"jX c #F3CBAA",
"kX c #FEC4A1",
"lX c #FCC5A9",
"zX c #FCC9A2",
"xX c #FDCCAC",
"cX c #F5C6A8",
"vX c #FBCEB1",
"bX c #F4CBB6",
"nX c #FED1A4",
"mX c #FDD2AB",
"MX c #F9D6A9",
"NX c #FFD4B2",
"BX c #FDD3BB",
"VX c #F8D7B7",
"CX c #EFE6BB",
"ZX c #FFE0A2",
"AX c #CED6C8",
"SX c #D8D9C4",
"DX c #C4E1CF",
"FX c #CBF0D1",
"GX c #D3E4C1",
"HX c #D1E2D2",
"JX c #C2EAE1",
"KX c #EBCBC2",
"LX c #E7D7C5",
"PX c #F6DBC5",
"IX c #F9E3C8",
"UX c #E9E2C5",
/* pixels */
"1X7X7X0XzXlXzXkX8X0X XwX}.7X9X1X1X}.7X0X9X3X6X6X:XeX4XnX0X9X}.7XzX9X8X0X,X,X7X7X0X0XyXhX0X0X7X1X0X0X",
"7X1X9X0XkXzXzXkXzX.X<X0X1X7X9X9X7X0X0X{.zXMXjXdXVXtXhXhX.XzXzXzX0XzXzX}.9XwX,X7X0XzXhXzX0X0X7X7X9X0X",
"1X7X9X0XzXzXkXzX7XzXzX<X{.NX6X4XxX[.xXvXbXbXrXaX%XaXaXcXBXvXcXcXvXtXxX{.9X7X}.nX0XzXzX0X0X8X7X7X0X9X",
"7X7X9X8X0X0XkX0X0X0X7XnXzX].hXVXaXsXPX%X9 t q t y d 9 s 9 q pXsX&XVXuXmXzXwX}.7X0X0XzX0X0X0X9X7X0X8X",
"7X9X9X0X0X0X0X0X9X0X9XzX[.vXaX'.SX1 e 7 r.i =.{ K 8 =.a K K 1 e t @XfXtXhX0X9X0X7X0X0X0X8X0X9X9X0X8X",
"8X8X8X8X0X8X9X9X1X7XzXhXtXBXPXt i 8 | | [ ;.] ] @.X.[ 1.j 8 5.S =.e t sXuXNXzX7X0X7X9X0X0X0X8X0X0X0X",
"8X8X0X0X0X9X9X7X0XwX4XtXaXIX- 9.c :.O.j T +. .:.M :.l ..#.X.@.[ >.p f s '.uXmX.X9X9X7X8X7X0X0X8X0X8X",
"8X0X0X0X9X9X1X7X9X{.mXtXLX9 q.=.} O.] #.O.+.:.M +...#.+.z 2.k #.} -.p J t gXyXxX8X7X9X7X9X8X0X0X0X9X",
"0X0X0X0X0X7X1X1X5X0X6XpXLX: q.V } v +.O.5.N N N M 5.M +.+...v +.z 4. .p s sXiXmX0X7X7X1X8X0XzX0X0X0X",
"0X8X0X8X7X9X7X1X9XnXdX%Xy =.b } :.v O.] l v 5. .N :.k :.O.+.@.W 4.l #.} i y rXyX0X7X7X7X7X0X0X0X0X8X",
"8X0X9X8X9X7X7X7X3X6XMXLXe a ;.o.8 ;.@.| -.O.] @.:.j %.X.l @.T #.W 2.#.c q.s gXuXzX0X7X7X8X8XkXzX0X8X",
"0X0X0X0X8X9X7X8X0XhXdX*X1 ;.X.@ , b | 8 | @.| E @ @ @ j <.} :.l Q ..W :.>.: KXgXhX0X7X7X7X8X0XzX0X0X",
"0X0X0X8X7X0X8X0XmX[.CXr i &.@ , + . } e.{ ' | $ X @ . * } -.m ;.k 3.z O.a q.0 fXjXzX7X7X7X8XzXkX0X8X",
"0X0X0X0X8X8X8X0X4XuXgX- ,.S * R.@ . >.b a 1.] X ^.a.& . ' } >.m +.W o.O.-.V u %XjX0X0X8X0X8X0XzX0X0X",
"9X0X0X8X8XkX0XkXmXjX&Xd K X Q.p.a.. X T %.A $ R.z.Q.R.* * 8 j 5.%.k ..@.-.V 0 LXuXhX8X7X8X7XzXzX0X8X",
"9X9X0X0X0X0X8XkXzXrXr d G $ I.Q.R.& X ' R &.$ I.I.W.I.& @ %.@.] W @.@.O.} { K y uXlX0X7X8X8X0X9X0X0X",
"1X7X8X8XzX0X8X8XzX=X1 G $.= R.W.a.= X | | [ & R.z.W.z.= X O.-.O.R X.v :.' } ,.1 fXlXkX8X7X7X5X5X0X9X",
"1X7X8XzX6X0X<X7X4XdXi G [ X % c.X o @ { v ] X % c.c.$ O X 1.Z N &.R  .n @.| 8 1 sXlX8X X9X1X5X5X0X0X",
"1X7X0XzXzX0X7X<X{.VX: =.a @ < O   @ + } -.-.@ o O X     . -.l :.l &.@.O.T ' K e aXlXXX7X7X7X9X5X9X0X",
"7X5X0X0X6X0X7X<XmX[.SXe 1.. . . . @ . { 1.' . *     : . . } @...2.k W k :.| : SXaXlXkX7X7X0X5X6X0X0X",
"9X0XhX6X0X8X7X1XzXxXLXw f + # + . . = c @.} + . . > o o . c #.l z 4.Q X.8 p s pXuXlX0X8X7X8X0X0X0X0X",
"9X6XhX6X0X7X1X7X{.mX'.w w.Z . + # . | ' [ ;.-.. o > o   -.;.! 3.z B 3.W ;.f 0 bXjX0X0X9X7X0X0X0X0X0X",
"0XzXhX6X8X7X7X9XwXlXPXKX0 V + # . X ;.@.@.j O.@ # . . . ;.X.h Q B 4.E E a f '.PXhX6X0X0X0X8X0XkX0X0X",
"kXzX6X6X0X8X1X1X3XzXXXbX0 q.C + X | ' [  .T [ O.. . . 1.j X.3.W 2.B Q &.*.9 BXlXzX5X5X6X8X8X0X0X0X8X",
"kXkX6X6X8X7X9X9X6X6XlXuXy K =.C { c } ;.j ;.T O.;.' ' [ ] [ O.O.+.4.l $.J 9 vXXX0X5X6X5X0X8X0XkX8X0X",
"kXzX0X0X8X7X9X6XeX].nXVX*X; =.b e.c -.-.>.N v  .] [ [ @.| -.N N M  .@.G e gXXX8X0X0X6X0X8X0XkX0X0X0X",
"kXkX0X0X8X7X6X6X5X3XMX:XgXe L =.7 e.. + # + # # [ X.[ T } n Z Z  .5.S i q dXxX8X0X0X0X6X0X0X8X0X8X8X",
"0X0X0X9X0X0XzXhXzX9X2X9XOXgX: =.1.m >.+ # #  .#.k [ [ [ O.-.n Z W S *.e gX[.NX0X0X0X0X4X8X0X8X8X0X0X",
"0X0X9X7X0X0XhXlXzX{.wX1X6XVX*X7 2 ' j @.W 2...l #.X.] k  .@.#.&.R 4 i LXtXxX4X7X7X0X0X0X9X0X0X9X7X0X",
"6X9X7X7X9X0XhXlX0X0X,X1X9X[.@XHXJX4 5 h Q z Q 3.E T &.&.R I 6 5 4 ).*X%XvXVX{.nX8X8X8X0X0X0X9X7X0X0X",
">X5X7X7X9XhXcXlX8XzX,X,X9XzXIX(.$.Y.T.I.h g g 3 h 3 5 5 5 Y V.S.Y.6.SXaXxX.XzX.X8X8X0X0X0X9X7X7X0X8X",
">X5X9X8X0XkXlXkXzX|.7X|.7XhX&X,.Y.S.k.K.A.A.T.U.E.I.Q.U.( d.K.B.Z.v.L *XjXzX8X0X0X0X0X0X0X0X9X9X9X0X",
"5X5X0X0XkXkXkX8X0X3X|.nX4XgXFXU ~.d.K.V.S.D.S.Z.D.D.A.` D.~ F.B.B.S.x.L CXjX XkX6X6X6X6X8X8X0X0X8X0X",
"5X0XkXkXXXXX8X8X5XeX7X7XNX_.D ~.B.C.L.F.A.V.J.K./ ^ / b.B./ V.B.K.g.~.F (.`.BX X0X>X6X6X8X X8X0X0X0X",
"5X5X0XkXXXXX0X0X5X/.9XzX:XCX7.x.B.K.b.B.V.V.G.~ B.H.C.H./ B.J.B.A.K.g.j.y.gXlX X0X6X6X0XXX8X0X0X0X0X",
"5X0XkXkXXXkXkX0XeXZX,X{.zX=X0.v.A.C.L.V.J.L.^ G.G.G.V.V.~ g.g.J.F.F.g.l.D *XlX X0X0X0X0X8X8X0X6X9X8X",
"9X0XkXkXkX8X0X0X1X;X7XnXzXdX(.7.S.B.V.V.` Y Y ) ^ S.K.) d.L.L.g.F.C.H.g.6.#XxXkX8X7X9X0X8X7X0X0X0X0X",
"0X0X8XkXXX8X0X5X>X2XeX|.zXmX=XL j.V.D._ I ! ! I ! ! 8.h.!.s.s.H.F.F.n.J.F -X:XzX7X7X7X0X8X8X0X0X0X0X",
"0X0X0XkXkXkX8X5XeX1X7X}.zX:XiXGX6.T.( A Q W z #.R Q ! N.K.n.H.M.P.C.C.g.6.-X>X8X7X7X7X7X8X8X0XhX0X0X",
"0X0X0X0X0X0X5X5X2XeX1XzX|.mXNX#XDX$.R R +.>.M 2.o.W E U.V.C.M.M.C.m.F.U.L =XMX<X7X7X7X7X8X0X0X0X0X0X",
"0X8X8X8X0X0X5XqX1X1X7X7X7X0X0XuXSXu n } N >.4.Q z ! g U.C.m.H.M.P.V.S.6.SX&XnXwX3X1X9X7X8X8X8X0X0X7X",
"0X8X8X8XzX0X6X6X5X5X7X7X0X8X0XjXKXs p b w.x z W Q Q 2 T.C.m.H.C.n.S.R.t.*X[.mX;XqXqX9X8X8X X0X0X0X0X",
"0X0X8X8X8X0X6X5X9X9X8X9X8X0X0XkXPX- ,.| Z Z 2.3.Q ! E Z.B.C.H.G.K.x.,.@XNXVX].nXqX>X9X0X X8X8X0X8X0X",
"6X0X8X7X0X0X5X5X0X0X8X0X0X0X0XzXfXe *.*.x 4.z Q E Q < c.j.g.B.j.k.,.SXaXXX8XzX3X>X>X9X0X7X8X8X0X0X0X",
"0X0X8X8X0X9X0X0X0X0X0X0X0X0X8X4XpXd S [ >.m  .[ <.< HXt.v.x.v.6.7.-XiXtXxX|.zX9X6X0X8X8X8X8X8X8X7X0X",
"6X0X8X8X8X9X5X0XkXkXkX0X6X6X8XzXfX  | [ w.N #.| ' ; LX*XP H y.$X=X=XjXzXkXMX}.0X0X0XkXkX8X8X0X9X0X0X",
"6X0X X8X9X0X4X0XXX8XkXzXhX5X8XkXbXs *.' x Z ;.R G e PX[.CX=X%XuXdXMXnX8X|.9X<X0X8X8X8X8X0X0X0X6X0X0X",
"0X8X8X7X8X0X0X0X8XkXzXhX6X5X8XkXbXKXe p w.Z *.G 1 LX[.mXhXnX4XkX4XzX7X0X0X9X0X7X X8XkX0X0X0X0X9X0X0X",
"0X0X8X7X0X0X0X0X8X0X0X0X0X0X8X0XvXtXuXy 9 e d 9 gXjXkX8X8X0X0X0X0X0X8X7X0X0X7X0X8X7X0X0X8X0X0X0X0X9X",
"8X0X0X0X0X8X8X0X0X9X8X0X0X0X0X8X X].IXrXfXsX&XVXjXzX8X8X7X0X0X0X0X0X0X0X0X0X0X0X0X8X8X0X0X0X8X0X0X8X"
};
