/* XPM */
static char * pe_xpm[] = {
"50 50 1733 2",
"  	c #F5CC9E",
". 	c #F4CB9D",
"+ 	c #F6CA9B",
"@ 	c #F5C99A",
"# 	c #F5CA9F",
"$ 	c #F4CAA0",
"% 	c #F3CCA5",
"& 	c #F2CCA7",
"* 	c #EFC9A4",
"= 	c #F5CEA7",
"- 	c #F3C69C",
"; 	c #F8C99B",
"> 	c #EEBE8E",
", 	c #F7C997",
"' 	c #FACB9D",
") 	c #F4CA9A",
"! 	c #EBC596",
"~ 	c #F5CFA0",
"{ 	c #F7CAA0",
"] 	c #F0C399",
"^ 	c #F5C9A2",
"/ 	c #F6CCA4",
"( 	c #FAD0AA",
"_ 	c #F0C9A2",
": 	c #F1CEA8",
"< 	c #E4C49D",
"[ 	c #EBD0A5",
"} 	c #F1D4A8",
"| 	c #E6C194",
"1 	c #F3CB9A",
"2 	c #F9CD9E",
"3 	c #F5CA95",
"4 	c #EDC58A",
"5 	c #F5CB91",
"6 	c #F2C492",
"7 	c #FFD0A4",
"8 	c #F4C59B",
"9 	c #F1C49B",
"0 	c #FACFA4",
"a 	c #F0C59A",
"b 	c #F3C39D",
"c 	c #F6C8A4",
"d 	c #F5CAAA",
"e 	c #F1C8AA",
"f 	c #F1CAA9",
"g 	c #F4C9A6",
"h 	c #F8C79F",
"i 	c #FBC89B",
"j 	c #F8C897",
"k 	c #F7C995",
"l 	c #F6CA9D",
"m 	c #F5C99C",
"n 	c #F4CEA9",
"o 	c #F3C9A1",
"p 	c #F2C59B",
"q 	c #F2C395",
"r 	c #FFD0A2",
"s 	c #F9CA9C",
"t 	c #EABF92",
"u 	c #F9D0A4",
"v 	c #F9D4AA",
"w 	c #EFCAA0",
"x 	c #F8CEA8",
"y 	c #F3C8A5",
"z 	c #F5CDAA",
"A 	c #E1BB97",
"B 	c #F0C9A8",
"C 	c #EFCCAC",
"D 	c #E7C9A7",
"E 	c #F5D8B6",
"F 	c #E7CFAB",
"G 	c #EAD0AB",
"H 	c #F2D0AA",
"I 	c #FAD5AB",
"J 	c #E7C097",
"K 	c #F0C79B",
"L 	c #F8D09D",
"M 	c #E9C18D",
"N 	c #F8CC9F",
"O 	c #F8CBA1",
"P 	c #F3C89E",
"Q 	c #F0C59B",
"R 	c #F7CEA2",
"S 	c #EFC499",
"T 	c #F2C59C",
"U 	c #F5C7A3",
"V 	c #F4C9A7",
"W 	c #F2C9A9",
"X 	c #F5CAA7",
"Y 	c #F8C8A0",
"Z 	c #FACA9C",
"` 	c #F5CCA0",
" .	c #F5CBA1",
"..	c #F3CCA3",
"+.	c #FDD0A6",
"@.	c #F2C699",
"#.	c #F4C99E",
"$.	c #E9C299",
"%.	c #F3D0AA",
"&.	c #E7C4A4",
"*.	c #F1CFB3",
"=.	c #EAC6AC",
"-.	c #EECAB0",
";.	c #EFCDB4",
">.	c #F7D7C0",
",.	c #E7C8B3",
"'.	c #E8CDB8",
").	c #DFC9B2",
"!.	c #DAC6AE",
"~.	c #E2CEB6",
"{.	c #DEC8B0",
"].	c #E9CFB6",
"^.	c #EED0B4",
"/.	c #F1CFB4",
"(.	c #F6D3B5",
"_.	c #E5C19D",
":.	c #FDD7B2",
"<.	c #EABF9C",
"[.	c #F0C6A0",
"}.	c #FFDDB4",
"|.	c #E5C094",
"1.	c #E7C194",
"2.	c #FDD4A8",
"3.	c #F5CAA0",
"4.	c #F5C8A1",
"5.	c #F5C9A6",
"6.	c #F2CAA6",
"7.	c #F2CBA4",
"8.	c #F5C998",
"9.	c #F5CA97",
"0.	c #F5CA9D",
"a.	c #F6CBA1",
"b.	c #F5CBA3",
"c.	c #F1C69B",
"d.	c #F8CEA4",
"e.	c #F1CBA4",
"f.	c #FCDBB8",
"g.	c #E7CCAE",
"h.	c #F4DBC5",
"i.	c #DBC6B3",
"j.	c #E0CBBA",
"k.	c #DAC7B6",
"l.	c #382516",
"m.	c #261406",
"n.	c #3A2E20",
"o.	c #23190D",
"p.	c #3C362A",
"q.	c #312B1F",
"r.	c #362E23",
"s.	c #241A0E",
"t.	c #2C1F0F",
"u.	c #D1BEAF",
"v.	c #F0DBC8",
"w.	c #DEC8B1",
"x.	c #E7CDB4",
"y.	c #F9DABE",
"z.	c #E8C7A8",
"A.	c #DDBB96",
"B.	c #F2CFA5",
"C.	c #F9D4A8",
"D.	c #ECC397",
"E.	c #F9CCA2",
"F.	c #F5C89F",
"G.	c #F6C9A2",
"H.	c #F7CBA6",
"I.	c #F1CAA1",
"J.	c #F6CBA0",
"K.	c #FBD0A5",
"L.	c #F0C69C",
"M.	c #E9C6A0",
"N.	c #EFD1AF",
"O.	c #E1C9AD",
"P.	c #E3D3BC",
"Q.	c #C5BFB1",
"R.	c #323429",
"S.	c #2A2D24",
"T.	c #262C22",
"U.	c #3D423B",
"V.	c #3F463F",
"W.	c #2C3932",
"X.	c #3B4C46",
"Y.	c #263633",
"Z.	c #32423F",
"`.	c #364240",
" +	c #45514D",
".+	c #26322E",
"++	c #434E48",
"@+	c #282D27",
"#+	c #262922",
"$+	c #222419",
"%+	c #D7D3C7",
"&+	c #CFC2B1",
"*+	c #E4CEB6",
"=+	c #F3D6B6",
"-+	c #E1BE98",
";+	c #F1C49A",
">+	c #FACBA1",
",+	c #F6C79D",
"'+	c #F6C9A0",
")+	c #F7CCA2",
"!+	c #F4C89B",
"~+	c #F3CDA6",
"{+	c #F5D7B5",
"]+	c #E4CCB0",
"^+	c #DDCCB8",
"/+	c #302A1C",
"(+	c #252B27",
"_+	c #324040",
":+	c #2C3E3E",
"<+	c #4A5E5D",
"[+	c #213335",
"}+	c #2D4044",
"|+	c #3D565A",
"1+	c #2C484C",
"2+	c #304B52",
"3+	c #314C53",
"4+	c #2F464C",
"5+	c #2A4147",
"6+	c #364D53",
"7+	c #30484C",
"8+	c #36484C",
"9+	c #3B4A4D",
"0+	c #253535",
"a+	c #2E3734",
"b+	c #2C2920",
"c+	c #EBDECE",
"d+	c #EDD5BB",
"e+	c #E8C7A6",
"f+	c #F2CCA5",
"g+	c #FDD2A7",
"h+	c #F9CA9E",
"i+	c #F8C99D",
"j+	c #F5C89E",
"k+	c #F7CAA1",
"l+	c #EBC197",
"m+	c #F5D3AE",
"n+	c #E9D0B2",
"o+	c #CFBEAA",
"p+	c #3A3225",
"q+	c #393A35",
"r+	c #2F383F",
"s+	c #3C4D57",
"t+	c #2E404A",
"u+	c #2D414A",
"v+	c #334752",
"w+	c #354B56",
"x+	c #29414D",
"y+	c #1E3845",
"z+	c #324C5B",
"A+	c #273E4E",
"B+	c #394E5F",
"C+	c #2D4351",
"D+	c #304654",
"E+	c #293F4C",
"F+	c #273A48",
"G+	c #31434F",
"H+	c #3D4E58",
"I+	c #2E393F",
"J+	c #38393B",
"K+	c #130A03",
"L+	c #F1E0CE",
"M+	c #EBD1B6",
"N+	c #E7C7A1",
"O+	c #EAC599",
"P+	c #F4C99C",
"Q+	c #F7CB9C",
"R+	c #F6CB9E",
"S+	c #F4C99F",
"T+	c #F8CA99",
"U+	c #F7D1AA",
"V+	c #EACCAA",
"W+	c #DFCDB5",
"X+	c #362D1E",
"Y+	c #404038",
"Z+	c #2E3638",
"`+	c #3B4956",
" @	c #2C3F50",
".@	c #334859",
"+@	c #283E4C",
"@@	c #364C5A",
"#@	c #273C4D",
"$@	c #324959",
"%@	c #32495B",
"&@	c #2D4255",
"*@	c #324458",
"=@	c #27394F",
"-@	c #35475B",
";@	c #334559",
">@	c #314657",
",@	c #344758",
"'@	c #2D404F",
")@	c #324452",
"!@	c #37434F",
"~@	c #3F444A",
"{@	c #403F3D",
"]@	c #261910",
"^@	c #E3D1BB",
"/@	c #E5CBAA",
"(@	c #F3D4A8",
"_@	c #EDC999",
":@	c #F6CC9A",
"<@	c #F7CB9A",
"[@	c #F7CCA1",
"}@	c #F6CCA2",
"|@	c #F7CAA3",
"1@	c #F6CAA3",
"2@	c #F4CAA2",
"3@	c #F6C799",
"4@	c #F3C798",
"5@	c #F3CA9E",
"6@	c #FAD8B3",
"7@	c #E3CAAC",
"8@	c #DFD2BF",
"9@	c #2E2B22",
"0@	c #303636",
"a@	c #34434A",
"b@	c #374A59",
"c@	c #2A4153",
"d@	c #2F4457",
"e@	c #263B4C",
"f@	c #2C4353",
"g@	c #324758",
"h@	c #324556",
"i@	c #28394B",
"j@	c #3D4C5F",
"k@	c #2D3C4F",
"l@	c #303F54",
"m@	c #303F52",
"n@	c #314053",
"o@	c #405161",
"p@	c #314453",
"q@	c #334654",
"r@	c #253745",
"s@	c #384651",
"t@	c #323B44",
"u@	c #48494E",
"v@	c #241F1B",
"w@	c #E1D4C4",
"x@	c #E5D0B3",
"y@	c #E9CDA5",
"z@	c #EBCB9A",
"A@	c #F1CC98",
"B@	c #F5CB99",
"C@	c #F7CB9E",
"D@	c #F4CB9F",
"E@	c #F3CCA1",
"F@	c #E9CBA9",
"G@	c #DECAB1",
"H@	c #30281B",
"I@	c #30322D",
"J@	c #384347",
"K@	c #274150",
"L@	c #314C5D",
"M@	c #283F51",
"N@	c #2E4555",
"O@	c #2D4452",
"P@	c #3A4D5C",
"Q@	c #273747",
"R@	c #3B4B5B",
"S@	c #2B3B4B",
"T@	c #2D3E4E",
"U@	c #3D4F5D",
"V@	c #2D3D4C",
"W@	c #1F313D",
"X@	c #2F434E",
"Y@	c #314752",
"Z@	c #2C4049",
"`@	c #3B4D57",
" #	c #303E49",
".#	c #333C43",
"+#	c #414143",
"@#	c #2F261D",
"##	c #D8C6AE",
"$#	c #E9CFAA",
"%#	c #F8D9AB",
"&#	c #F1CD9B",
"*#	c #F2C898",
"=#	c #F3C89D",
"-#	c #E6CBAD",
";#	c #E1D0BC",
">#	c #322F26",
",#	c #444D4C",
"'#	c #2F4047",
")#	c #304854",
"!#	c #284855",
"~#	c #264653",
"{#	c #334F5D",
"]#	c #28424F",
"^#	c #2F4B56",
"/#	c #1B3641",
"(#	c #334954",
"_#	c #394B57",
":#	c #273943",
"<#	c #3C5059",
"[#	c #344B53",
"}#	c #2D444C",
"|#	c #344851",
"1#	c #374B52",
"2#	c #2F484C",
"3#	c #354E52",
"4#	c #1D363B",
"5#	c #334750",
"6#	c #3A4851",
"7#	c #34393D",
"8#	c #2A251F",
"9#	c #E8D7C3",
"0#	c #EFD6B7",
"a#	c #E6C79B",
"b#	c #F9C9A1",
"c#	c #F4CAA4",
"d#	c #EFCDA8",
"e#	c #EBD3B9",
"f#	c #DACEBE",
"g#	c #161711",
"h#	c #424D4F",
"i#	c #364852",
"j#	c #253F4C",
"k#	c #2D4B56",
"l#	c #2B4954",
"m#	c #1F3644",
"n#	c #394F5C",
"o#	c #2E4650",
"p#	c #3A5159",
"q#	c #263842",
"r#	c #000E15",
"s#	c #00131A",
"t#	c #000F14",
"u#	c #233A40",
"v#	c #334B4F",
"w#	c #35484E",
"x#	c #35484C",
"y#	c #23383B",
"z#	c #364B4E",
"A#	c #2B4043",
"B#	c #02171C",
"C#	c #001118",
"D#	c #31454C",
"E#	c #3E4C4F",
"F#	c #1A1C17",
"G#	c #DDD2C0",
"H#	c #EBD3B7",
"I#	c #EBCEA6",
"J#	c #F4CFA3",
"K#	c #F7C79F",
"L#	c #F4C8A1",
"M#	c #EDCEAF",
"N#	c #E7D2BD",
"O#	c #2B2318",
"P#	c #454948",
"Q#	c #243338",
"R#	c #324651",
"S#	c #283F4D",
"T#	c #3F5563",
"U#	c #263948",
"V#	c #354554",
"W#	c #283643",
"X#	c #3A4853",
"Y#	c #34414A",
"Z#	c #05121A",
"`#	c #000911",
" $	c #000C13",
".$	c #001014",
"+$	c #000F15",
"@$	c #324549",
"#$	c #2E3D42",
"$$	c #303D43",
"%$	c #445157",
"&$	c #39444A",
"*$	c #00020B",
"=$	c #000811",
"-$	c #0B222A",
";$	c #001419",
">$	c #394E4F",
",$	c #2B382F",
"'$	c #353221",
")$	c #E9D8BE",
"!$	c #DCBF9D",
"~$	c #F3D0A8",
"{$	c #F9CFA5",
"]$	c #F8CDA3",
"^$	c #F3CDA0",
"/$	c #EBCEB0",
"($	c #D6C5B3",
"_$	c #312D24",
":$	c #384140",
"<$	c #384950",
"[$	c #2C424D",
"}$	c #314755",
"|$	c #293C4B",
"1$	c #354755",
"2$	c #2A3A49",
"3$	c #3E4C57",
"4$	c #36434C",
"5$	c #2F3C44",
"6$	c #00090E",
"7$	c #001115",
"8$	c #6B7E82",
"9$	c #6A7F82",
"0$	c #000D10",
"a$	c #304548",
"b$	c #3E5155",
"c$	c #29383D",
"d$	c #2D3A40",
"e$	c #3F484F",
"f$	c #00000C",
"g$	c #000612",
"h$	c #698289",
"i$	c #00191B",
"j$	c #213E3A",
"k$	c #415248",
"l$	c #121001",
"m$	c #E7D7C0",
"n$	c #EACDAF",
"o$	c #F0CAA6",
"p$	c #EFC59F",
"q$	c #F2C79D",
"r$	c #F2CBA0",
"s$	c #ECC8A4",
"t$	c #EBD0B5",
"u$	c #DFD2C2",
"v$	c #26231C",
"w$	c #364041",
"x$	c #36474F",
"y$	c #304653",
"z$	c #2F4654",
"A$	c #253C4A",
"B$	c #364E5A",
"C$	c #3F5763",
"D$	c #243B43",
"E$	c #24373E",
"F$	c #051F20",
"G$	c #607E7E",
"H$	c #6F9190",
"I$	c #5E807F",
"J$	c #658788",
"K$	c #001719",
"L$	c #1F3D3F",
"M$	c #3D595C",
"N$	c #2B4045",
"O$	c #000E16",
"P$	c #000B19",
"Q$	c #647682",
"R$	c #597A7F",
"S$	c #69908F",
"T$	c #00160F",
"U$	c #374B40",
"V$	c #353223",
"W$	c #DCC7B4",
"X$	c #ECCAB1",
"Y$	c #F6CDAF",
"Z$	c #F3C69D",
"`$	c #F8CCA5",
" %	c #F3CD9E",
".%	c #F3C99F",
"+%	c #F7C89E",
"@%	c #F1CDAD",
"#%	c #E5CDB5",
"$%	c #2C2417",
"%%	c #3E433D",
"&%	c #324043",
"*%	c #2F414B",
"=%	c #314452",
"-%	c #2F4C54",
";%	c #28454D",
">%	c #28404A",
",%	c #364A51",
"'%	c #001416",
")%	c #001614",
"!%	c #60837D",
"~%	c #668D88",
"{%	c #5F8681",
"]%	c #638584",
"^%	c #001A1C",
"/%	c #314F51",
"(%	c #2B474A",
"_%	c #2C4146",
":%	c #000D17",
"<%	c #70848B",
"[%	c #698B8C",
"}%	c #608482",
"|%	c #001712",
"1%	c #2E433A",
"2%	c #34372C",
"3%	c #3A2D1C",
"4%	c #E3C5AD",
"5%	c #F5CEAF",
"6%	c #F2C8A2",
"7%	c #F2C8A0",
"8%	c #F5C9A4",
"9%	c #F3CE9A",
"0%	c #F2CC9F",
"a%	c #F4CEA1",
"b%	c #F2CDA0",
"c%	c #F1CD9D",
"d%	c #F6C29A",
"e%	c #F3C19E",
"f%	c #EDC5AB",
"g%	c #E5D0BD",
"h%	c #1F2116",
"i%	c #495956",
"j%	c #2F4449",
"k%	c #2B3F4A",
"l%	c #3B4B5A",
"m%	c #2A3E49",
"n%	c #294B4C",
"o%	c #2B4D4E",
"p%	c #334350",
"q%	c #323E4E",
"r%	c #34424D",
"s%	c #000F13",
"t%	c #021D18",
"u%	c #608075",
"v%	c #65897F",
"w%	c #64857E",
"x%	c #657F7E",
"y%	c #02171A",
"z%	c #37494D",
"A%	c #36454C",
"B%	c #00070C",
"C%	c #000F0F",
"D%	c #6C807E",
"E%	c #6B8582",
"F%	c #698684",
"G%	c #001819",
"H%	c #354B49",
"I%	c #2F443B",
"J%	c #262D1B",
"K%	c #D7C6AA",
"L%	c #F6D4AF",
"M%	c #EEC49A",
"N%	c #EFC698",
"O%	c #EFCEA1",
"P%	c #F1D0A7",
"Q%	c #F0C4A1",
"R%	c #F3CC93",
"S%	c #F2CC9D",
"T%	c #F4CE9F",
"U%	c #F2CE9E",
"V%	c #F7C29A",
"W%	c #F6C1A1",
"X%	c #F3CBB1",
"Y%	c #E1CCB9",
"Z%	c #242A1E",
"`%	c #203530",
" &	c #354D51",
".&	c #2F4550",
"+&	c #2E3E4D",
"@&	c #2E424D",
"#&	c #2D4F50",
"$&	c #31414E",
"%&	c #323B4C",
"&&	c #485460",
"*&	c #00080D",
"=&	c #00110D",
"-&	c #041B11",
";&	c #658077",
">&	c #657E78",
",&	c #001214",
"'&	c #041318",
")&	c #313E44",
"!&	c #313E46",
"~&	c #344149",
"{&	c #010F12",
"]&	c #000E0B",
"^&	c #000903",
"/&	c #6E8280",
"(&	c #011516",
"_&	c #000D13",
":&	c #2C433D",
"<&	c #2C3927",
"[&	c #E2D3B6",
"}&	c #E5C39D",
"|&	c #F3C89B",
"1&	c #EFC595",
"2&	c #F1D0A3",
"3&	c #ECCBA2",
"4&	c #F5CAA8",
"5&	c #F5CC98",
"6&	c #F5CD92",
"7&	c #F7C39B",
"8&	c #F5C3A0",
"9&	c #F3CCAF",
"0&	c #E4CEB9",
"a&	c #2F3022",
"b&	c #384742",
"c&	c #2C4144",
"d&	c #283F47",
"e&	c #334553",
"f&	c #344A57",
"g&	c #324F55",
"h&	c #1F3C42",
"i&	c #374A58",
"j&	c #233342",
"k&	c #343E4A",
"l&	c #020B12",
"m&	c #000302",
"n&	c #000501",
"o&	c #000A06",
"p&	c #020E0E",
"q&	c #00080C",
"r&	c #000A10",
"s&	c #36434B",
"t&	c #39464E",
"u&	c #35424A",
"v&	c #000A0D",
"w&	c #000806",
"x&	c #000809",
"y&	c #0E1B21",
"z&	c #010E17",
"A&	c #414D49",
"B&	c #202111",
"C&	c #F0D8BC",
"D&	c #E5BF98",
"E&	c #F4C599",
"F&	c #F8C898",
"G&	c #F0CA9D",
"H&	c #F1CCA2",
"I&	c #F2C69F",
"J&	c #F5CD9A",
"K&	c #F4CD94",
"L&	c #F7C69D",
"M&	c #F3C69F",
"N&	c #EFC8A9",
"O&	c #E3CBB3",
"P&	c #DBD4C4",
"Q&	c #141B13",
"R&	c #354545",
"S&	c #3D5158",
"T&	c #253B48",
"U&	c #29404E",
"V&	c #263E4A",
"W&	c #39545F",
"X&	c #2D4754",
"Y&	c #314754",
"Z&	c #35414D",
"`&	c #00010A",
" *	c #000306",
".*	c #17181A",
"+*	c #030406",
"@*	c #000205",
"#*	c #070E14",
"$*	c #2F3C45",
"%*	c #44525B",
"&*	c #2B3C44",
"**	c #010B0C",
"=*	c #000608",
"-*	c #030A10",
";*	c #010810",
">*	c #000410",
",*	c #4B4F58",
"'*	c #1F1F1D",
")*	c #D6CDBE",
"!*	c #DFC2A4",
"~*	c #FED4AC",
"{*	c #F3C395",
"]*	c #F8C596",
"^*	c #F3CBA7",
"/*	c #F5CD9C",
"(*	c #F4CC98",
"_*	c #F1CDA9",
":*	c #EACFB2",
"<*	c #D7C8B5",
"[*	c #39362D",
"}*	c #313B3A",
"|*	c #22373C",
"1*	c #314C55",
"2*	c #2C4655",
"3*	c #384D60",
"4*	c #1C3C49",
"5*	c #334F5A",
"6*	c #2B3942",
"7*	c #02060F",
"8*	c #05040A",
"9*	c #080309",
"0*	c #140D14",
"a*	c #09060D",
"b*	c #000109",
"c*	c #000C14",
"d*	c #31424A",
"e*	c #34474E",
"f*	c #283C43",
"g*	c #04161A",
"h*	c #000305",
"i*	c #000207",
"j*	c #060912",
"k*	c #080814",
"l*	c #3A3740",
"m*	c #2E2321",
"n*	c #E8D3C2",
"o*	c #EDCCAB",
"p*	c #F7CDA3",
"q*	c #F8C89A",
"r*	c #F8C397",
"s*	c #F9C89F",
"t*	c #EFC9A2",
"u*	c #EECBA1",
"v*	c #EFCCA6",
"w*	c #E9CAAB",
"x*	c #E5CFB8",
"y*	c #281E12",
"z*	c #3D423C",
"A*	c #3D5152",
"B*	c #264349",
"C*	c #33505E",
"D*	c #2D4159",
"E*	c #273D54",
"F*	c #395B67",
"G*	c #2A4B54",
"H*	c #384951",
"I*	c #3B424A",
"J*	c #06050D",
"K*	c #060108",
"L*	c #120B13",
"M*	c #07040B",
"N*	c #00040B",
"O*	c #34424B",
"P*	c #324951",
"Q*	c #294046",
"R*	c #36494F",
"S*	c #060910",
"T*	c #01000E",
"U*	c #3E3E4A",
"V*	c #4F4A50",
"W*	c #34211B",
"X*	c #D6B9A7",
"Y*	c #F9D7B2",
"Z*	c #E6BD91",
"`*	c #FBC79F",
" =	c #EECDA2",
".=	c #EFD0A4",
"+=	c #F1CCA0",
"@=	c #EFCDAA",
"#=	c #F5D7BD",
"$=	c #CCB9A8",
"%=	c #3A3A32",
"&=	c #2A3A39",
"*=	c #264347",
"==	c #364B66",
"-=	c #273C57",
";=	c #2E4E5B",
">=	c #1A3B42",
",=	c #3D4A52",
"'=	c #00030C",
")=	c #01010B",
"!=	c #010109",
"~=	c #0A0F15",
"{=	c #32464D",
"]=	c #233944",
"^=	c #354D57",
"/=	c #3B4E54",
"(=	c #00090D",
"_=	c #050912",
":=	c #030713",
"<=	c #050915",
"[=	c #343841",
"}=	c #201C1D",
"|=	c #E2CCC1",
"1=	c #F4D4BD",
"2=	c #EDCBA5",
"3=	c #F7D3A3",
"4=	c #F4CC9B",
"5=	c #F5C49B",
"6=	c #EFC299",
"7=	c #EECFA1",
"8=	c #EDD0A4",
"9=	c #F2CBA2",
"0=	c #F4C7A0",
"a=	c #F0CEA1",
"b=	c #F0CBAE",
"c=	c #EACFBA",
"d=	c #221C10",
"e=	c #3A4740",
"f=	c #345252",
"g=	c #2A4A55",
"h=	c #283D58",
"i=	c #2D415C",
"j=	c #284452",
"k=	c #3B565F",
"l=	c #334A50",
"m=	c #293A41",
"n=	c #404A53",
"o=	c #00030A",
"p=	c #00050B",
"q=	c #33464D",
"r=	c #2C434B",
"s=	c #2C424F",
"t=	c #2D434E",
"u=	c #2A3B42",
"v=	c #3C474D",
"w=	c #020911",
"x=	c #00010D",
"y=	c #383F49",
"z=	c #40484B",
"A=	c #24211C",
"B=	c #E8CEBF",
"C=	c #E6C3A7",
"D=	c #F0CFA4",
"E=	c #F7CEA0",
"F=	c #F5C69C",
"G=	c #EBCFA0",
"H=	c #F0CB9F",
"I=	c #F5CEA5",
"J=	c #ECC1A1",
"K=	c #EFCCB6",
"L=	c #291C0C",
"M=	c #3E463B",
"N=	c #354E4A",
"O=	c #203E46",
"P=	c #32465F",
"Q=	c #354662",
"R=	c #2D3E50",
"S=	c #354753",
"T=	c #2D4148",
"U=	c #31444B",
"V=	c #2E3F46",
"W=	c #2D4046",
"X=	c #384D52",
"Y=	c #293D48",
"Z=	c #364957",
"`=	c #273746",
" -	c #3D4B56",
".-	c #333D46",
"+-	c #303B41",
"@-	c #384148",
"#-	c #38414A",
"$-	c #3D464B",
"%-	c #37403B",
"&-	c #2A261A",
"*-	c #E7CBB5",
"=-	c #EFCBA9",
"--	c #F0CFA2",
";-	c #EFD19F",
">-	c #EDCF9D",
",-	c #F1CFA1",
"'-	c #F1C69C",
")-	c #EECE9F",
"!-	c #EECDA0",
"~-	c #F3C9A3",
"{-	c #F5C7A5",
"]-	c #F5CFA2",
"^-	c #F0C2A1",
"/-	c #E7C2A7",
"(-	c #E2D0BC",
"_-	c #28291B",
":-	c #374B42",
"<-	c #334C50",
"[-	c #2A3F52",
"}-	c #2B3B54",
"|-	c #323A4D",
"1-	c #363F4E",
"2-	c #344650",
"3-	c #32494F",
"4-	c #344B51",
"5-	c #2C454A",
"6-	c #2F484D",
"7-	c #2E444F",
"8-	c #293C4A",
"9-	c #334353",
"0-	c #3A4656",
"a-	c #3A424F",
"b-	c #3E4750",
"c-	c #343E47",
"d-	c #49565C",
"e-	c #2D383E",
"f-	c #3E4746",
"g-	c #13190D",
"h-	c #E1D9C4",
"i-	c #F2D3B6",
"j-	c #F9D1AD",
"k-	c #DFBD8F",
"l-	c #F3D5A3",
"m-	c #EDCE9F",
"n-	c #F4C8A3",
"o-	c #F2CDA1",
"p-	c #F5C5A1",
"q-	c #F3CAAC",
"r-	c #EDD5BD",
"s-	c #2C2513",
"t-	c #2D372C",
"u-	c #273A38",
"v-	c #435762",
"w-	c #3A3D50",
"x-	c #393C4B",
"y-	c #2F404A",
"z-	c #2E454D",
"A-	c #2E4A4E",
"B-	c #324F53",
"C-	c #29464C",
"D-	c #00101B",
"E-	c #000B1A",
"F-	c #000214",
"G-	c #000517",
"H-	c #000210",
"I-	c #00040D",
"J-	c #46555C",
"K-	c #18272A",
"L-	c #3D4949",
"M-	c #414841",
"N-	c #2E2D19",
"O-	c #E5D6B9",
"P-	c #E2C09B",
"Q-	c #FFD8AE",
"R-	c #E9C497",
"S-	c #F3D1A3",
"T-	c #F0CDA3",
"U-	c #F8CBA2",
"V-	c #F7C7A1",
"W-	c #FFD4B2",
"X-	c #D8BA9E",
"Y-	c #E5D6C1",
"Z-	c #2A2B1B",
"`-	c #3F4C45",
" ;	c #273C3F",
".;	c #313B47",
"+;	c #303845",
"@;	c #33454F",
"#;	c #2F484F",
"$;	c #2B484C",
"%;	c #29484D",
"&;	c #244149",
"*;	c #293A4A",
"=;	c #00091A",
"-;	c #000212",
";;	c #3D4C53",
">;	c #293C40",
",;	c #425655",
"';	c #3D4945",
");	c #1A1E10",
"!;	c #DDD3BA",
"~;	c #D9C19F",
"{;	c #F5D0A6",
"];	c #EFC497",
"^;	c #F3CEA2",
"/;	c #F1CEA6",
"(;	c #F0CDA5",
"_;	c #F1C7A1",
":;	c #F6C99F",
"<;	c #F3C39B",
"[;	c #ECC19E",
"};	c #F2D1B2",
"|;	c #DDC7AF",
"1;	c #E4DCC9",
"2;	c #292F23",
"3;	c #203933",
"4;	c #2C4C49",
"5;	c #395256",
"6;	c #364D55",
"7;	c #244145",
"8;	c #274649",
"9;	c #304D53",
"0;	c #304D55",
"a;	c #354857",
"b;	c #364A55",
"c;	c #253E42",
"d;	c #284445",
"e;	c #0D2622",
"f;	c #1E2B21",
"g;	c #D7D6C2",
"h;	c #ECD7B8",
"i;	c #F2D1A8",
"j;	c #F0C799",
"k;	c #FDD1A2",
"l;	c #EBC095",
"m;	c #F7CDA7",
"n;	c #F2CAA7",
"o;	c #F4CEAA",
"p;	c #F4CDA6",
"q;	c #F8C99F",
"r;	c #F4C79D",
"s;	c #EFCDA0",
"t;	c #F2C399",
"u;	c #FED1A8",
"v;	c #E9BF99",
"w;	c #FAD6B4",
"x;	c #ECD1B6",
"y;	c #D3C1AD",
"z;	c #D1D4C3",
"A;	c #B8D7C7",
"B;	c #113D30",
"C;	c #012B27",
"D;	c #143C3E",
"E;	c #1E4147",
"F;	c #23464C",
"G;	c #2D4F51",
"H;	c #325154",
"I;	c #29464E",
"J;	c #223E49",
"K;	c #35515D",
"L;	c #294551",
"M;	c #26444E",
"N;	c #24454C",
"O;	c #153B3E",
"P;	c #09302F",
"Q;	c #0C302E",
"R;	c #CEECE4",
"S;	c #D1DFD0",
"T;	c #D0CAB2",
"U;	c #E2C4A0",
"V;	c #F7CC9F",
"W;	c #EFC491",
"X;	c #F3C8A8",
"Y;	c #F5CCAC",
"Z;	c #F2C79A",
"`;	c #EFCD9F",
" >	c #F6C69E",
".>	c #E9BE93",
"+>	c #FCD2AA",
"@>	c #E5BF9B",
"#>	c #F5D3B7",
"$>	c #E7CEB8",
"%>	c #DEDDC8",
"&>	c #3C6249",
"*>	c #5F9A84",
"=>	c #5B998C",
"->	c #5A928F",
";>	c #255557",
">>	c #0E373B",
",>	c #0E3435",
"'>	c #103234",
")>	c #0E2C34",
"!>	c #193741",
"~>	c #10303B",
"{>	c #133841",
"]>	c #103B41",
"^>	c #174749",
"/>	c #538A87",
"(>	c #669B95",
"_>	c #629189",
":>	c #38594E",
"<>	c #C0CFBC",
"[>	c #ECE3C6",
"}>	c #EBC8A0",
"|>	c #F9C998",
"1>	c #F0C58E",
"2>	c #EDC48E",
"3>	c #FCCFA6",
"4>	c #F3C5A4",
"5>	c #F4C7AA",
"6>	c #EDCAA2",
"7>	c #F1CFA2",
"8>	c #F1C89A",
"9>	c #EED09E",
"0>	c #EAD09D",
"a>	c #F0C69E",
"b>	c #F7CBA4",
"c>	c #ECC9A9",
"d>	c #E4CAAF",
"e>	c #DED4BB",
"f>	c #3D4D33",
"g>	c #649679",
"h>	c #4C9278",
"i>	c #559E8D",
"j>	c #5BA197",
"k>	c #457D7C",
"l>	c #396B6C",
"m>	c #568784",
"n>	c #64908F",
"o>	c #557C81",
"p>	c #638A8F",
"q>	c #5D888E",
"r>	c #619193",
"s>	c #5B928F",
"t>	c #55908A",
"u>	c #5A9B93",
"v>	c #498A82",
"w>	c #57958A",
"x>	c #5D9081",
"y>	c #405C45",
"z>	c #D3D4B5",
"A>	c #E1C19B",
"B>	c #F3C498",
"C>	c #EEC38E",
"D>	c #F4CD96",
"E>	c #F5C6A8",
"F>	c #F4C7A8",
"G>	c #F4CCA8",
"H>	c #F3CEA4",
"I>	c #EEC899",
"J>	c #EBD29C",
"K>	c #F4C49E",
"L>	c #F0C49D",
"M>	c #EFCCA2",
"N>	c #EBCEA2",
"O>	c #EACDA1",
"P>	c #F1D1A8",
"Q>	c #EFC4A2",
"R>	c #E7C0A3",
"S>	c #E9E5CA",
"T>	c #455E41",
"U>	c #629376",
"V>	c #53987C",
"W>	c #4F9D87",
"X>	c #4D9A88",
"Y>	c #51998E",
"Z>	c #276965",
"`>	c #5D9B98",
" ,	c #34756F",
".,	c #529189",
"+,	c #58938F",
"@,	c #609993",
"#,	c #548D87",
"$,	c #538F87",
"%,	c #559887",
"&,	c #5A9E8F",
"*,	c #4A9086",
"=,	c #549D94",
"-,	c #36887A",
";,	c #5FAA96",
">,	c #2B5F48",
",,	c #D9EDD2",
"',	c #E8D7BB",
"),	c #EAC3A2",
"!,	c #FCD3A7",
"~,	c #E7C28D",
"{,	c #EACB95",
"],	c #F3D1A1",
"^,	c #F8CCA7",
"/,	c #F6C5A7",
"(,	c #F2C1A3",
"_,	c #F5CBA5",
":,	c #EFCF9E",
"<,	c #EED09A",
"[,	c #F5C39E",
"},	c #F2C59E",
"|,	c #EFCEA3",
"1,	c #EBD0A3",
"2,	c #EAD2A4",
"3,	c #EECEA7",
"4,	c #E9BE9E",
"5,	c #F3CEB4",
"6,	c #CEBEA5",
"7,	c #C0CDB3",
"8,	c #3A6949",
"9,	c #64A68A",
"0,	c #4B9480",
"a,	c #53A090",
"b,	c #58A291",
"c,	c #4A9284",
"d,	c #2E746A",
"e,	c #4B928A",
"f,	c #479085",
"g,	c #2D756A",
"h,	c #266C62",
"i,	c #2B6F64",
"j,	c #5FA197",
"k,	c #519586",
"l,	c #4B937F",
"m,	c #4C9581",
"n,	c #579F94",
"o,	c #5AA79D",
"p,	c #4EA497",
"q,	c #4E9F8C",
"r,	c #65A188",
"s,	c #3A563D",
"t,	c #C6BAA2",
"u,	c #EECA96",
"v,	c #FADDA3",
"w,	c #EACC96",
"x,	c #F1C79F",
"y,	c #F8C7A7",
"z,	c #F4BEA2",
"A,	c #F2BFA2",
"B,	c #F0CE9E",
"C,	c #EFD09A",
"D,	c #F6C4A1",
"E,	c #F2CDA3",
"F,	c #EDCC9F",
"G,	c #ECBD9F",
"H,	c #E1DABE",
"I,	c #556E51",
"J,	c #5E9776",
"K,	c #4F987D",
"L,	c #55998E",
"M,	c #52958C",
"N,	c #4C9081",
"O,	c #589D8B",
"P,	c #589F91",
"Q,	c #2E766A",
"R,	c #5CA699",
"S,	c #539D90",
"T,	c #5AA296",
"U,	c #4E9489",
"V,	c #2E7267",
"W,	c #529B88",
"X,	c #509B87",
"Y,	c #509A8D",
"Z,	c #40897E",
"`,	c #559E93",
" '	c #59998B",
".'	c #5F8F79",
"+'	c #4B6248",
"@'	c #EADEC4",
"#'	c #E4C3A4",
"$'	c #F6CFA4",
"%'	c #F2CD99",
"&'	c #DCBD86",
"*'	c #F6C5A5",
"='	c #FAC7AA",
"-'	c #F5C2A5",
";'	c #F6C8A7",
">'	c #EFCE9B",
",'	c #F6C6A2",
"''	c #F5C59F",
")'	c #F4CDA2",
"!'	c #EFBE9E",
"~'	c #EAC8AC",
"{'	c #D2D5B8",
"]'	c #305333",
"^'	c #61A282",
"/'	c #4E9982",
"('	c #549692",
"_'	c #539392",
":'	c #57998D",
"<'	c #4A8F7C",
"['	c #49907E",
"}'	c #27705F",
"|'	c #4D9587",
"1'	c #50988C",
"2'	c #5EA297",
"3'	c #599B91",
"4'	c #5A9990",
"5'	c #25675D",
"6'	c #69AD9E",
"7'	c #59A090",
"8'	c #4B9387",
"9'	c #62AA9E",
"0'	c #579B90",
"a'	c #599184",
"b'	c #5C836E",
"c'	c #55654A",
"d'	c #D5C5AB",
"e'	c #ECC298",
"f'	c #EAC28F",
"g'	c #FFE2AB",
"h'	c #F8CAA8",
"i'	c #F3C2A4",
"j'	c #F7C6A6",
"k'	c #F6C6A0",
"l'	c #F8C6A5",
"m'	c #EBCCAF",
"n'	c #C8D1B2",
"o'	c #3E6B4A",
"p'	c #57A180",
"q'	c #54A690",
"r'	c #4E9293",
"s'	c #559499",
"t'	c #579D92",
"u'	c #5EA793",
"v'	c #61AC97",
"w'	c #408976",
"x'	c #377B6C",
"y'	c #59988F",
"z'	c #548D86",
"A'	c #2C605C",
"B'	c #427471",
"C'	c #1E524E",
"D'	c #225953",
"E'	c #347066",
"F'	c #4F9185",
"G'	c #499082",
"H'	c #54988B",
"I'	c #609988",
"J'	c #41644C",
"K'	c #C0C9AC",
"L'	c #E6D1B4",
"M'	c #F9D2B1",
"N'	c #F8CDA2",
"O'	c #F1C995",
"P'	c #E4C58C",
"Q'	c #F0D19A",
"R'	c #F3C2A2",
"S'	c #F9C8A8",
"T'	c #F3C7A2",
"U'	c #F7C7A3",
"V'	c #F7C5A0",
"W'	c #F4C496",
"X'	c #F4C398",
"Y'	c #FDCBA8",
"Z'	c #E1C4A4",
"`'	c #D8E3C1",
" )	c #366344",
".)	c #5EA789",
"+)	c #4D9E8D",
"@)	c #50979B",
"#)	c #4D9098",
"$)	c #539C91",
"%)	c #43907C",
"&)	c #42907A",
"*)	c #66AF9C",
"=)	c #458376",
"-)	c #3F746E",
";)	c #2C5A58",
">)	c #30595B",
",)	c #1E454A",
"')	c #30575C",
"))	c #325B5D",
"!)	c #204E4B",
"~)	c #457D74",
"{)	c #549484",
"])	c #619682",
"^)	c #425C41",
"/)	c #CECFB0",
"()	c #EACFB1",
"_)	c #F9CEAB",
":)	c #E8BB91",
"<)	c #FAD19D",
"[)	c #EECE95",
"})	c #EDD098",
"|)	c #F1C3A1",
"1)	c #F5C7A6",
"2)	c #F7C6A5",
"3)	c #F7C5A2",
"4)	c #F6C897",
"5)	c #F9C99B",
"6)	c #E6CAA5",
"7)	c #CED5B4",
"8)	c #3A6142",
"9)	c #56987D",
"0)	c #53A191",
"a)	c #489295",
"b)	c #4E999F",
"c)	c #57A49E",
"d)	c #58A99A",
"e)	c #4F9E8B",
"f)	c #5CA393",
"g)	c #4A8279",
"h)	c #295554",
"i)	c #274D50",
"j)	c #264750",
"k)	c #2E4C57",
"l)	c #2A4652",
"m)	c #233E49",
"n)	c #2C4B50",
"o)	c #1A433F",
"p)	c #35645A",
"q)	c #5E9484",
"r)	c #35614A",
"s)	c #D0E0C3",
"t)	c #DAD1B0",
"u)	c #E6C3A3",
"v)	c #FACAA6",
"w)	c #F1C894",
"x)	c #F1D198",
"y)	c #F0D39B",
"z)	c #EFCFA0",
"A)	c #F4C3A2",
"B)	c #F7C9A8",
"C)	c #F1C5A2",
"D)	c #F4C897",
"E)	c #ECCEA8",
"F)	c #DAD9BA",
"G)	c #3A5437",
"H)	c #629880",
"I)	c #60A495",
"J)	c #499392",
"K)	c #49989C",
"L)	c #4E9F99",
"M)	c #54A499",
"N)	c #4C9D8E",
"O)	c #52998B",
"P)	c #5B8E89",
"Q)	c #184040",
"R)	c #24474D",
"S)	c #274752",
"T)	c #2A4556",
"U)	c #273E50",
"V)	c #344555",
"W)	c #384A56",
"X)	c #2E4A4B",
"Y)	c #2C4D46",
"Z)	c #395D4F",
"`)	c #CBE4CF",
" !	c #CFCFB3",
".!	c #EBD7B6",
"+!	c #F9D1AE",
"@!	c #EAB991",
"#!	c #FFD1A6",
"$!	c #EFC392",
"%!	c #F5D29C",
"&!	c #F0D19B",
"*!	c #EECE9D",
"=!	c #F4C6A2",
"-!	c #F6C8A6",
";!	c #F6CDA1",
">!	c #F4C4A0",
",!	c #F2CA97",
"'!	c #F5D09C",
")!	c #F6D0A3",
"!!	c #EED0AA",
"~!	c #DBCEAE",
"{!	c #CFD7BF",
"]!	c #3E5F4A",
"^!	c #568C7C",
"/!	c #4A938A",
"(!	c #55A5A2",
"_!	c #479794",
":!	c #56A5A0",
"<!	c #4F9F96",
"[!	c #4E948A",
"}!	c #52837F",
"|!	c #143A3B",
"1!	c #264D54",
"2!	c #234755",
"3!	c #254458",
"4!	c #354B62",
"5!	c #354157",
"6!	c #313A49",
"7!	c #35474B",
"8!	c #334642",
"9!	c #222C24",
"0!	c #DBD9CA",
"a!	c #E3CFB4",
"b!	c #EDCCA9",
"c!	c #F7C799",
"d!	c #F0CC98",
"e!	c #F0D09F",
"f!	c #F6CAA5",
"g!	c #F2C4A2",
"h!	c #F2C4A0",
"i!	c #F5D19D",
"j!	c #EDCC97",
"k!	c #E4BF92",
"l!	c #F8D8B1",
"m!	c #DBC2A4",
"n!	c #D9CEB8",
"o!	c #596652",
"p!	c #608775",
"q!	c #579A89",
"r!	c #459588",
"s!	c #4E9A96",
"t!	c #509C98",
"u!	c #48988F",
"v!	c #559B91",
"w!	c #6A9792",
"x!	c #092D2D",
"y!	c #2E555C",
"z!	c #234956",
"A!	c #28495C",
"B!	c #2A4058",
"C!	c #272F46",
"D!	c #43485B",
"E!	c #344348",
"F!	c #2D3937",
"G!	c #2A2722",
"H!	c #DDCBBD",
"I!	c #EDCBB0",
"J!	c #F0C8A4",
"K!	c #F9CDA0",
"L!	c #F6C698",
"M!	c #F7C797",
"N!	c #F6CA99",
"O!	c #F0D09D",
"P!	c #F7C9A5",
"Q!	c #EECD9A",
"R!	c #F1D19E",
"S!	c #F2D0A0",
"T!	c #DFBC94",
"U!	c #F9D4B7",
"V!	c #EBD1BA",
"W!	c #CCC5B2",
"X!	c #485E49",
"Y!	c #5A9279",
"Z!	c #5BA58E",
"`!	c #529B90",
" ~	c #529D96",
".~	c #52A295",
"+~	c #569A8D",
"@~	c #578279",
"#~	c #20403D",
"$~	c #2A4D51",
"%~	c #20454E",
"&~	c #305164",
"*~	c #334960",
"=~	c #3B425C",
"-~	c #363D4F",
";~	c #374A4E",
">~	c #43524F",
",~	c #19140E",
"'~	c #ECD5C7",
")~	c #F2CAB0",
"!~	c #EFCF9C",
"~~	c #EAC898",
"{~	c #F0C5A5",
"]~	c #E7C2A8",
"^~	c #E0CAB3",
"/~	c #D8DCC3",
"(~	c #406846",
"_~	c #51896C",
":~	c #5A9583",
"<~	c #589888",
"[~	c #4D9581",
"}~	c #599782",
"|~	c #638376",
"1~	c #0E231C",
"2~	c #385455",
"3~	c #29474F",
"4~	c #2D4A5A",
"5~	c #293F54",
"6~	c #3E445E",
"7~	c #2B3245",
"8~	c #324A4E",
"9~	c #364943",
"0~	c #232017",
"a~	c #E9D4C3",
"b~	c #F1C8AC",
"c~	c #F4C6A4",
"d~	c #F3C5A3",
"e~	c #EFCA9D",
"f~	c #F3CF9F",
"g~	c #EDC79A",
"h~	c #E8BA98",
"i~	c #F9CDB0",
"j~	c #E4C2A6",
"k~	c #DDD0B0",
"l~	c #D9E9C4",
"m~	c #416340",
"n~	c #3D6147",
"o~	c #608A72",
"p~	c #5B9072",
"q~	c #6D987D",
"r~	c #525F4D",
"s~	c #D1D7CB",
"t~	c #12231D",
"u~	c #3B5355",
"v~	c #304354",
"w~	c #31374F",
"x~	c #3D4558",
"y~	c #30494D",
"z~	c #284239",
"A~	c #33362B",
"B~	c #DCCBB7",
"C~	c #F0C9AA",
"D~	c #F2C89E",
"E~	c #F5CB9B",
"F~	c #F1C89C",
"G~	c #FAD1A5",
"H~	c #EEC399",
"I~	c #FED1AA",
"J~	c #F6CAA7",
"K~	c #ECCFAD",
"L~	c #D9D1AA",
"M~	c #D3D7B2",
"N~	c #CCD3B4",
"O~	c #5E6D50",
"P~	c #445F3C",
"Q~	c #3A4D2D",
"R~	c #D1CBB5",
"S~	c #E4DBCC",
"T~	c #141E13",
"U~	c #324742",
"V~	c #373D55",
"W~	c #3C4457",
"X~	c #344D51",
"Y~	c #3B524A",
"Z~	c #0B0D02",
"`~	c #E4D2BE",
" {	c #F0C7A9",
".{	c #F1C9A5",
"+{	c #F2C6A3",
"@{	c #F0CEA0",
"#{	c #F2C6A1",
"${	c #F6C5A4",
"%{	c #E4BA92",
"&{	c #FAD2AE",
"*{	c #F4D4AE",
"={	c #EFD3AE",
"-{	c #E3CAAB",
";{	c #D8C8A7",
">{	c #D5D1AC",
",{	c #ECE6C2",
"'{	c #D7BBA5",
"){	c #F2D8C7",
"!{	c #2A2D1C",
"~{	c #304639",
"{{	c #294843",
"]{	c #334E55",
"^{	c #30384D",
"/{	c #2F3649",
"({	c #2D4245",
"_{	c #374641",
":{	c #372C26",
"<{	c #EECEBF",
"[{	c #F1C2A6",
"}{	c #E9CEA1",
"|{	c #EFC6A6",
"1{	c #F2C3A5",
"2{	c #FAC99E",
"3{	c #F3C5A1",
"4{	c #F9CCA5",
"5{	c #EEC19A",
"6{	c #FDD1AA",
"7{	c #F2C7A5",
"8{	c #E9C7A2",
"9{	c #ECD3AB",
"0{	c #E7CDA8",
"a{	c #F7CEB2",
"b{	c #DEBAA2",
"c{	c #E3D9C0",
"d{	c #202914",
"e{	c #32463A",
"f{	c #40504F",
"g{	c #363844",
"h{	c #4A4A54",
"i{	c #343D3A",
"j{	c #27291E",
"k{	c #E4CEC1",
"l{	c #ECC6B3",
"m{	c #F1C49D",
"n{	c #F4CCA9",
"o{	c #F2C4A3",
"p{	c #F9CAA0",
"q{	c #F0CAA3",
"r{	c #F0CBA1",
"s{	c #F3C8A6",
"t{	c #E8CBAB",
"u{	c #E1D0B4",
"v{	c #261E0B",
"w{	c #342E20",
"x{	c #2B2118",
"y{	c #291C13",
"z{	c #362B19",
"A{	c #DCCAB2",
"B{	c #E2C0A4",
"C{	c #F6CBAB",
"D{	c #FACCA8",
"E{	c #F6CEAB",
"F{	c #ECCDAE",
"G{	c #F1D8C2",
"H{	c #DBCAB6",
"I{	c #E6D5C3",
"J{	c #E2D1BD",
"K{	c #DAC4AC",
"L{	c #FFE4C6",
"  . + @ # $ % & * = - ; > , ' ) ! ~ { ] ^ / ( _ : < [ } | 1 2 3 4 5 6 7 8 9 0 a b c d e f g h i j k ",
"  . l m # $ % & n o p q r s t u v w x y z A B C D E F G H I J K L M N O P Q R S T U V W f X Y Z , k ",
"` . l l #  ...% % / +.l @.#.$.%.&.*.=.-.;.>.,.'.).!.~.{.].^./.(._.:.<.[.}.|.1.2.3.4.5.X 6.7.3.l 8.9.",
"` # 0.l # a.b.b./ 3.c.a d.e.f.g.h.i.j.k.l.m.n.o.p.q.r.s.n.t.u.v.w.x.y.z.A.B.C.D.E.F.G.H.7.I.3.#.@ 8.",
"J.J.# # # J. .` #.J.K.L.M.N.O.P.Q.R.S.T.U.V.W.X.Y.Z.`. +.+++@+#+$+%+&+*+=+-+d.;+>+,+'+)+ . .)+{ m @ ",
"J.J.# # # J.J.0.!+m #.~+{+]+^+/+(+_+:+<+[+}+|+1+2+3+4+5+6+7+8+9+0+a+b+c+d+e+f+g+h+i+h+O J. .a.a.j+m ",
"k+k+3.3.$ # 0.+ + l l+m+n+o+p+q+r+s+t+u+v+w+x+y+z+A+B+C+D+E+F+G+H+I+J+K+L+M+N+O+P+Q+' Q+R+` $ $ S+#.",
"k+k+^ ^ $ # l + T+P+U+V+W+X+Y+Z+`+ @.@+@@@#@$@%@&@*@=@-@;@>@,@'@)@!@~@{@]@^@/@(@_@:@<@+ N [@` }@S+S+",
"|@|@1@2@$ #.m 3@4@5@6@7@8@9@0@a@b@c@d@e@f@g@h@i@j@k@l@m@n@o@p@q@r@s@t@u@v@w@x@y@z@A@B@@ C@J.D@ .a.1@",
"|@1@1@2@$ #.m 3@N E@F@G@H@I@J@v+K@L@M@$@N@O@P@Q@R@S@T@U@V@W@X@Y@Z@`@ #.#+#@###$#%#&#*#+ j+j+# [@a.1@",
"k+1@1@2@$ #.m !+=#e.-#;#>#,#'#)#!#~#{#]#^#/#(#_#:#<#[#}#|#1#4+2#3#4#5#6#7#8#9#0#a#_@. C@j+b#E.j+a. .",
"k+a.c#2@2@#.m !+ .d#e#f#g#h#i#j#k#l#m#n#o#p#q#r#s#t#u#v#w#x#y#z#A#B#C#D#E#F#G#H#I#J#5@=#'+K#j+[@ . .",
"a.a.c#2@L##.m j+% M#N#O#P#Q#R#S#T#U#V#W#X#Y#Z#`# $.$+$@$#$$$%$&$*$=$-$;$>$,$'$)$!$~${$S+F.k+]$}@^$^$",
"a. .2@2@S+S+j+S+& /$($_$:$<$[$}$|$1$2$3$4$5$6$7$8$9$0$a$b$c$d$e$f$g$h$i$j$k$l$m$n$o$p$S+k+q$$ r$^$^$",
" . .2@2@S+S+j+L#s$t$u$v$w$x$y$z$A$B$C$D$E$B#F$G$H$I$J$K$L$M$N$O$P$Q$R$S$T$U$V$W$X$Y$g ^ F.Z$`$}@^$ %",
" .E@r$r$.%#.+%L#@%#%$%%%&%*%=%y$-%;%>%(#,%'%)%!%~%{%]%^%/%(%_%+$:%<%[%}%|%1%2%3%4%5%6%P }@7%8%1@  9%",
"0%a%b%c% %P+d%e%f%g%h%i%j%k%l%m%n%o%p%q%r%s%t%u%v%w%x%y%}+z%A%B%C%D%E%F%G%H%I%J%K%L%M%N%O%P%Q%4.B@R%",
"S%T%U%c% %P+V%W%X%Y%Z%`% &.&+&@&#&o%$&%&&&*&=&-&;&>&,&'&)&!&~&{&]&^&/&(&_&@$:&<&[&}&|&1&2&3&4&G.5&6&",
"D@^$b%c% %P+7&8&9&0&a&b&c&d&e&f&g&h&i&j&k&l&m&n&o&p&q&r&s&t&u&v&w&w&x&y&z&I+A&B&C&D&E&F&G&H&y I&J&K&",
"D@` ^$0%D@j+L&M&N&O&P&Q&R&S&T&U&V&W&X&Y&Z&`& *.*+*@*#*=$$*%*&*6$**=*-*;*>*,*'*)*!*~*{*]*- / ^*../*(*",
"a. .E@E@3.j+j+L#_*:*<*[*}*|*1*2*3*M@4*5*6*7*8*9*0*a*b*c*d*e*f*g*h*i*j*k*f$l*m*n*o*p*q*r*s*L#t*u*0%. ",
"a.3.b.b.F.F.# r$v*w*x*y*z*A*B*C*D*E*F*G*H*I*J*K*L*M*N*O*|#P*Q*R*B%S*f$T*U*V*W*X*Y*Z*3@i `*'+ =.=r$$ ",
")+3.b.b.4.F.` +=u*@=#=$=%=&=*=~#==-=;=>=D#,='=)=!=~=c*{=]=^=P*/=(=_=:=<=[=}=|=1=2=3=4=C@5=6=7=8=9=^ ",
")+3.1@1@0=4.E@a=+=v*b=c=d=e=f=g=h=i=j=k=l=m=n==$o=p=q=r=s=t=5#u=v=w=x=y=z=A=B=C=D=z@U%E=F=P 7=G=7.8%",
"'+a.^ ^ U L#+=a=H=I=J=K=L=M=N=O=P=Q=R=S=u+T=U=V=W=X=|#Y=Z=`= -.-+-@-#-$-%-&-*-=---;->-,-9 '-)-!-~-{-",
"'+k+1@G.c ^ +=a=]-}@^-/-(-_-:-<-[-}-|-1-2-3-6+4-5-6-7-8-9-0-a-b-c-d-e-f-g-h-i-j-k-l-m-O%3.'-b%H=n-{-",
"a.a.k+'+G.2@o-o-5@'-p-q-r-s-t-u-v-n@w-x-y-z-5-A-B-C-D-E-F-G-H-I-J-K-L-M-N-O-P-Q-R-S-.=T-7%F.#.J.L#8%",
"a.a.'+'+^ 2@o-E@# U-V-W-X-Y-Z-`- ;u+.;+;@;#;A-$;%;&;f&*;=;-;>*;;>;,;';);!;~;{;];` ^;/;(;_;'+j+{ 2@2@",
"J.J.:;# $ r$.. .j+:;<;[;};|;1;2;3;4;5;6;3+C-7;8;9;0;A$D+a;b;6;c;d;e;f;g;h;i;j;k;l;m;n;o;p;3.q;r;r$s;",
"J.J.:;# r$r$2@^ Y t;u;v;w;x;y;z;A;B;C;D;E;F;G;H;I;J;K;L;M;N;O;P;Q;R;S;T;U;V;5&W;=#5.X;Y;f+r$j+Z;`;m-",
"J.# l #.r$+=^ G. >K#.>+>@>#>$>%>&>*>=>->;>>>,>'>)>!>~>{>]>^>/>(>_>:><>[>}>|>1>2>3>4>5>d 6>7>j;8>9>0>",
"` # #.#..%9=9=o a>b.b>^*c>d>e>f>g>h>i>j>k>l>m>n>o>p>q>r>s>t>u>v>w>x>y>z>A>B>C>D>Z*c#E>F>G>H>K I>9>J>",
"E@E@3.F.K>L>M>N>O>P>Q>R>x.S>T>U>V>W>X>Y>Z>`> ,.,+,@,#,$,%,&,*,=,-,;,>,,,',),!,~,{,],^,/,(,^-_,^;:,<,",
"E@E@2@4.[,},|,1,2,3,4,5,6,7,8,9,0,a,b,c,d,e,f,g,h,i,j,k,l,m,n,o,p,q,r,s,t,*.I.u,v,w,x,y,z,A,5.9=B,C,",
" .E@2@^ D,},E,7=F,f+G,=.H,I,J,K,L,M,N,O,P,Q,R,S,T,U,V,P,W,X,Y,Z,`, '.'+'@'#'$'%'&'C,o *'='-';'b.U%>'",
" . .9=2@,''')'o-0%^ !'~'{']'^'/'('_':'<'['}'|'1'2'3'4'5'6'7'8'9'0'a'b'c'd'&.e'f'g'C,2@h'i'i'j'8%b%>'",
"a. .H&% ,'k')+` !+t;l'm'n'o'p'q'r's't'u'v'w'x'y'z'A'B'C'D'E'F'G'H'I'J'K'L'M'N'O'P'Q'H=5.*'R'S'T'0%c%",
"a. .H&% U'V'a.0.W'X'Y'Z'`' ).)+)@)#)$)%)&)*)=)-);)>),)')))!)~)=>{)])^)/)()_):)<)[)}),-6%|)*'1)5.r$c%",
"J. .9=_,2)3)k+l 4)5)<;6)7)8)9)0)a)b)c)d)e)f)g)h)i)j)k)l)m)n)o)p)q)r)s)t)u)v)E&w)x)y)z){;c A)B)C)r$0%",
"J. .9=_,2)3)k+P+D)8.S E)F)G)H)I)J)K)L)M)N)O)P)Q)R)S)T)U)V)W)X)Y)Z)`) !.!+!@!#!$!%!&!*!s;L#=!-!5.$ 0%",
";!$ / _,A)>!'+0.,!'!)!!!~!{!]!^!/!(!_!:!<![!}!|!1!2!3!4!5!6!7!8!9!0!a!b!_;+%c!T+5&d!e!z)` |@=!=!2@$ ",
";!$ / f!g!h!3.. i!j!k!l!m!n!o!p!q!r!s!t!u!v!w!x!y!z!A!B!C!D!E!F!G!H!I!J!a.K!L!M!N!A@O!:,S%a.=!=!^ $ ",
"  D@b>P!g!h!^ 0%Q!R!S!T!U!V!W!X!Y!Z!`! ~.~+~@~#~$~%~&~*~=~-~;~>~,~'~)~=!j+l i+h+l 1 e!:,S%# 0=T'b.9=",
"  J.b>c g!h!L#$ S!!~~~v {~]~^~/~(~_~:~<~[~}~|~1~2~3~4~5~6~7~8~9~0~a~b~k'J.=#'+k+:;5@:,:,4=l M&T'b.9=",
"R+J.a.8%c~d~U ^ e~f~g~d.h~i~j~k~l~m~n~o~p~q~r~s~t~u~o#v~w~x~y~z~A~B~C~K>R )'o c#L#D~z)B,E~l M&_;9=H&",
"R+J.a.^ U {-U 0=p*F~G~H~I~J~W K~L~M~N~O~P~Q~R~S~T~U~<-=%V~W~X~Y~Z~`~ {''o-a=& .{+{6%a=@{R+h+M&#{9=H&",
"C@J.$ 2@f!-!${p-K>F.{ p S+%{#{&{*{={-{;{>{,{'{){!{~{{{]{^{/{({_{:{<{[{k'O%}{d#|{1{d~E,o-C@2{''3{..M>",
"{ J.$ 2@H.P!=!>!K>Y ,+j+p*p*4{5{6{p$7{8{9{0{a{b{c{d{e{f{g{h{i{j{k{l{/,m{2&N>2=n{o{g!% )'O p{''},..E,",
"a.a.a.a.1@1@1@|@k+k+k+a.a.a.a.a.a. .c#e.q{r{n-s{t{u{v{w{x{y{z{A{B{C{D{b>E@r$..2@1@1@b. .a.k+k+a. . .",
"a.a.a.a.a.a.a.a.a.a.a.a.a.a.a.a.J.` 2@9=S+S++%S+E{F{G{H{I{J{K{L{A I&b>1@a.a.a.a.a.a.a.a.a.a.a.a.a.a."};
